(G-CODE GENERATED BY FLATCAM v8.994 - www.flatcam.org - Version Date: 2020/11/7)

(Name: Gerber_TopLayer.GTL_iso_combined_cnc)
(Type: G-code from Geometry)
(Units: MM)

(Created on Tuesday, 11 April 2023 at 20:50)

/TOOL DIAMETER = ДИАМЕТР ИНСТРУМЕНТА: 0.8 mm
/Feedrate_XY = подача XY: 1000.0 mm/min
/Feedrate_Z = подача Z: 800.0 mm/min
/Feedrate rapids = быстрая подача1500.0 mm/min

/Z_Cut = проходы по Z: -0.05 mm
/Z_Move: 2.0 mm
/Z Start: None mm
/Z End: 15.0 mm
/X,Y End: None mm
(Steps per circle: 64)
/Steps per circle: 64
/Preprocessor Geometry: Charly4U

/X range:    8.9980 ...   41.9797  mm
/Y range:  -59.6200 ...  -21.5599  mm

/Скорость шпинделя: 20000.0 RPM
G71 / измерения в мм
G90 / программирование в абсолютных координатах

F1000
/Tool switching while working is not supported! = Смена инструмента в процессе работы не поддерживается!
M3 S20000.0
F1000
G0 X14.4780 Y-24.0219
F800
G1 Z-0.0500 F800
F1000
G1 X16.0020 Y-24.0219
G1 X16.0216 Y-24.0215
G1 X16.0412 Y-24.0200
G1 X16.0704 Y-24.0161
G1 X16.0896 Y-24.0122
G1 X16.1087 Y-24.0075
G1 X16.1274 Y-24.0018
G1 X16.1459 Y-23.9951
G1 X16.1730 Y-23.9835
G1 X16.1905 Y-23.9747
G1 X16.2076 Y-23.9650
G1 X16.2323 Y-23.9490
G1 X16.2557 Y-23.9311
G1 X16.2706 Y-23.9183
G1 X16.2848 Y-23.9048
G1 X16.2984 Y-23.8906
G1 X16.3112 Y-23.8757
G1 X16.3290 Y-23.8523
G1 X16.3451 Y-23.8276
G1 X16.3547 Y-23.8105
G1 X16.3636 Y-23.7930
G1 X16.3715 Y-23.7750
G1 X16.3786 Y-23.7567
G1 X16.3875 Y-23.7286
G1 X16.3923 Y-23.7096
G1 X16.3961 Y-23.6903
G1 X16.3990 Y-23.6709
G1 X16.4001 Y-23.6602
G1 X17.7723 Y-23.6602
G1 X17.7849 Y-23.6770
G1 X17.7974 Y-23.6922
G1 X17.8632 Y-23.7650
G1 X17.8767 Y-23.7792
G1 X17.8910 Y-23.7927
G1 X17.9564 Y-23.8520
G1 X17.9789 Y-23.8710
G1 X18.0577 Y-23.9295
G1 X18.0737 Y-23.9409
G1 X18.0903 Y-23.9514
G1 X18.1661 Y-23.9968
G1 X18.1919 Y-24.0110
G1 X18.2895 Y-24.0571
G1 X18.3168 Y-24.0680
G1 X18.4000 Y-24.0978
G1 X18.4186 Y-24.1040
G1 X18.4375 Y-24.1092
G1 X18.5232 Y-24.1307
G1 X18.5424 Y-24.1350
G1 X18.5617 Y-24.1383
G1 X18.6588 Y-24.1526
G1 X18.6881 Y-24.1551
G1 X18.7763 Y-24.1595
G1 X18.7960 Y-24.1599
G1 X18.8156 Y-24.1595
G1 X18.9038 Y-24.1551
G1 X18.9234 Y-24.1537
G1 X18.9429 Y-24.1513
G1 X19.0302 Y-24.1383
G1 X19.0496 Y-24.1350
G1 X19.0687 Y-24.1307
G1 X19.1544 Y-24.1092
G1 X19.1733 Y-24.1040
G1 X19.1920 Y-24.0978
G1 X19.2751 Y-24.0680
G1 X19.2935 Y-24.0610
G1 X19.3114 Y-24.0530
G1 X19.3912 Y-24.0153
G1 X19.4088 Y-24.0064
G1 X19.4259 Y-23.9968
G1 X19.5016 Y-23.9514
G1 X19.5182 Y-23.9409
G1 X19.5343 Y-23.9295
G1 X19.6052 Y-23.8769
G1 X19.6282 Y-23.8585
G1 X19.7010 Y-23.7927
G1 X19.7221 Y-23.7722
G1 X19.7946 Y-23.6922
G1 X19.8070 Y-23.6770
G1 X19.8196 Y-23.6602
G1 X21.8363 Y-23.6602
G1 X21.8489 Y-23.6770
G1 X21.8613 Y-23.6922
G1 X21.9272 Y-23.7650
G1 X21.9407 Y-23.7792
G1 X21.9549 Y-23.7927
G1 X22.0204 Y-23.8520
G1 X22.0429 Y-23.8710
G1 X22.1216 Y-23.9295
G1 X22.1377 Y-23.9409
G1 X22.1543 Y-23.9514
G1 X22.2300 Y-23.9968
G1 X22.2471 Y-24.0064
G1 X22.2647 Y-24.0153
G1 X22.3445 Y-24.0530
G1 X22.3625 Y-24.0610
G1 X22.3808 Y-24.0680
G1 X22.4639 Y-24.0978
G1 X22.4826 Y-24.1040
G1 X22.5015 Y-24.1092
G1 X22.5872 Y-24.1307
G1 X22.6063 Y-24.1350
G1 X22.6257 Y-24.1383
G1 X22.7130 Y-24.1513
G1 X22.7325 Y-24.1537
G1 X22.7521 Y-24.1551
G1 X22.8403 Y-24.1595
G1 X22.8599 Y-24.1599
G1 X22.8796 Y-24.1595
G1 X22.9678 Y-24.1551
G1 X22.9971 Y-24.1526
G1 X23.0942 Y-24.1383
G1 X23.1136 Y-24.1350
G1 X23.1327 Y-24.1307
G1 X23.2184 Y-24.1092
G1 X23.2373 Y-24.1040
G1 X23.2560 Y-24.0978
G1 X23.3391 Y-24.0680
G1 X23.3574 Y-24.0610
G1 X23.3754 Y-24.0530
G1 X23.4552 Y-24.0153
G1 X23.4728 Y-24.0064
G1 X23.4898 Y-23.9968
G1 X23.5656 Y-23.9514
G1 X23.5822 Y-23.9409
G1 X23.5982 Y-23.9295
G1 X23.6692 Y-23.8769
G1 X23.6847 Y-23.8649
G1 X23.6995 Y-23.8520
G1 X23.7650 Y-23.7927
G1 X23.7792 Y-23.7792
G1 X23.7927 Y-23.7650
G1 X23.8520 Y-23.6995
G1 X23.8649 Y-23.6847
G1 X23.8769 Y-23.6692
G1 X23.9295 Y-23.5982
G1 X23.9409 Y-23.5822
G1 X23.9514 Y-23.5656
G1 X23.9968 Y-23.4898
G1 X24.0064 Y-23.4728
G1 X24.0153 Y-23.4552
G1 X24.0530 Y-23.3754
G1 X24.0610 Y-23.3574
G1 X24.0680 Y-23.3391
G1 X24.0978 Y-23.2560
G1 X24.1040 Y-23.2373
G1 X24.1092 Y-23.2184
G1 X24.1307 Y-23.1327
G1 X24.1350 Y-23.1136
G1 X24.1383 Y-23.0942
G1 X24.1513 Y-23.0068
G1 X24.1537 Y-22.9874
G1 X24.1551 Y-22.9678
G1 X24.1595 Y-22.8796
G1 X24.1599 Y-22.8599
G1 X24.1595 Y-22.8403
G1 X24.1551 Y-22.7521
G1 X24.1526 Y-22.7228
G1 X24.1383 Y-22.6257
G1 X24.1350 Y-22.6063
G1 X24.1307 Y-22.5872
G1 X24.1092 Y-22.5015
G1 X24.1040 Y-22.4826
G1 X24.0978 Y-22.4639
G1 X24.0680 Y-22.3808
G1 X24.0610 Y-22.3625
G1 X24.0530 Y-22.3445
G1 X24.0153 Y-22.2647
G1 X24.0064 Y-22.2471
G1 X23.9968 Y-22.2300
G1 X23.9462 Y-22.1459
G1 X23.9295 Y-22.1216
G1 X23.8769 Y-22.0507
G1 X23.8649 Y-22.0352
G1 X23.8520 Y-22.0204
G1 X23.7927 Y-21.9549
G1 X23.7792 Y-21.9407
G1 X23.7650 Y-21.9272
G1 X23.6995 Y-21.8679
G1 X23.6847 Y-21.8550
G1 X23.6692 Y-21.8429
G1 X23.5982 Y-21.7903
G1 X23.5822 Y-21.7790
G1 X23.5656 Y-21.7685
G1 X23.4898 Y-21.7231
G1 X23.4728 Y-21.7134
G1 X23.4552 Y-21.7046
G1 X23.3754 Y-21.6669
G1 X23.3574 Y-21.6589
G1 X23.3391 Y-21.6518
G1 X23.2467 Y-21.6189
G1 X23.2184 Y-21.6107
G1 X23.1327 Y-21.5892
G1 X23.1136 Y-21.5849
G1 X23.0942 Y-21.5816
G1 X23.0068 Y-21.5686
G1 X22.9874 Y-21.5662
G1 X22.9678 Y-21.5648
G1 X22.8796 Y-21.5604
G1 X22.8599 Y-21.5599
G1 X22.8403 Y-21.5604
G1 X22.7521 Y-21.5648
G1 X22.7325 Y-21.5662
G1 X22.7130 Y-21.5686
G1 X22.6257 Y-21.5816
G1 X22.6063 Y-21.5849
G1 X22.5872 Y-21.5892
G1 X22.5015 Y-21.6107
G1 X22.4826 Y-21.6159
G1 X22.4639 Y-21.6221
G1 X22.3808 Y-21.6518
G1 X22.3534 Y-21.6628
G1 X22.2558 Y-21.7089
G1 X22.2300 Y-21.7231
G1 X22.1543 Y-21.7685
G1 X22.1377 Y-21.7790
G1 X22.1216 Y-21.7903
G1 X22.0429 Y-21.8489
G1 X22.0204 Y-21.8679
G1 X21.9549 Y-21.9272
G1 X21.9407 Y-21.9407
G1 X21.9272 Y-21.9549
G1 X21.8613 Y-22.0277
G1 X21.8489 Y-22.0429
G1 X21.8362 Y-22.0598
G1 X19.8197 Y-22.0598
G1 X19.8070 Y-22.0429
G1 X19.7946 Y-22.0277
G1 X19.7221 Y-21.9477
G1 X19.7010 Y-21.9272
G1 X19.6355 Y-21.8679
G1 X19.6207 Y-21.8550
G1 X19.6052 Y-21.8429
G1 X19.5343 Y-21.7903
G1 X19.5182 Y-21.7790
G1 X19.5016 Y-21.7685
G1 X19.4259 Y-21.7231
G1 X19.4001 Y-21.7089
G1 X19.3114 Y-21.6669
G1 X19.2935 Y-21.6589
G1 X19.2751 Y-21.6518
G1 X19.1920 Y-21.6221
G1 X19.1733 Y-21.6159
G1 X19.1544 Y-21.6107
G1 X19.0687 Y-21.5892
G1 X19.0496 Y-21.5849
G1 X19.0302 Y-21.5816
G1 X18.9429 Y-21.5686
G1 X18.9136 Y-21.5654
G1 X18.8156 Y-21.5604
G1 X18.7960 Y-21.5599
G1 X18.7763 Y-21.5604
G1 X18.6881 Y-21.5648
G1 X18.6685 Y-21.5662
G1 X18.6491 Y-21.5686
G1 X18.5617 Y-21.5816
G1 X18.5327 Y-21.5870
G1 X18.4280 Y-21.6132
G1 X18.4000 Y-21.6221
G1 X18.3168 Y-21.6518
G1 X18.2985 Y-21.6589
G1 X18.2805 Y-21.6669
G1 X18.2007 Y-21.7046
G1 X18.1832 Y-21.7134
G1 X18.1661 Y-21.7231
G1 X18.0903 Y-21.7685
G1 X18.0737 Y-21.7790
G1 X18.0577 Y-21.7903
G1 X17.9867 Y-21.8429
G1 X17.9713 Y-21.8550
G1 X17.9564 Y-21.8679
G1 X17.8910 Y-21.9272
G1 X17.8699 Y-21.9477
G1 X17.7974 Y-22.0277
G1 X17.7849 Y-22.0429
G1 X17.7722 Y-22.0598
G1 X16.4001 Y-22.0598
G1 X16.3990 Y-22.0490
G1 X16.3961 Y-22.0296
G1 X16.3923 Y-22.0103
G1 X16.3875 Y-21.9913
G1 X16.3786 Y-21.9632
G1 X16.3715 Y-21.9449
G1 X16.3636 Y-21.9269
G1 X16.3500 Y-21.9008
G1 X16.3399 Y-21.8839
G1 X16.3290 Y-21.8676
G1 X16.3173 Y-21.8518
G1 X16.3049 Y-21.8367
G1 X16.2848 Y-21.8151
G1 X16.2632 Y-21.7951
G1 X16.2481 Y-21.7826
G1 X16.2323 Y-21.7709
G1 X16.2160 Y-21.7600
G1 X16.1991 Y-21.7499
G1 X16.1730 Y-21.7363
G1 X16.1459 Y-21.7247
G1 X16.1274 Y-21.7181
G1 X16.1087 Y-21.7124
G1 X16.0896 Y-21.7077
G1 X16.0704 Y-21.7038
G1 X16.0412 Y-21.6999
G1 X16.0216 Y-21.6984
G1 X16.0020 Y-21.6979
G1 X14.4780 Y-21.6979
G1 X14.4583 Y-21.6984
G1 X14.4290 Y-21.7009
G1 X14.3999 Y-21.7056
G1 X14.3713 Y-21.7124
G1 X14.3525 Y-21.7181
G1 X14.3340 Y-21.7247
G1 X14.3069 Y-21.7363
G1 X14.2808 Y-21.7499
G1 X14.2557 Y-21.7654
G1 X14.2319 Y-21.7826
G1 X14.2167 Y-21.7951
G1 X14.2022 Y-21.8082
G1 X14.1816 Y-21.8293
G1 X14.1626 Y-21.8518
G1 X14.1454 Y-21.8757
G1 X14.1349 Y-21.8923
G1 X14.1252 Y-21.9094
G1 X14.1123 Y-21.9358
G1 X14.1048 Y-21.9540
G1 X14.0982 Y-21.9725
G1 X14.0900 Y-22.0007
G1 X14.0839 Y-22.0296
G1 X14.0799 Y-22.0587
G1 X14.0785 Y-22.0783
G1 X14.0780 Y-22.0979
G1 X14.0781 Y-23.6318
G1 X14.0791 Y-23.6514
G1 X14.0810 Y-23.6709
G1 X14.0839 Y-23.6903
G1 X14.0877 Y-23.7096
G1 X14.0925 Y-23.7286
G1 X14.0982 Y-23.7474
G1 X14.1048 Y-23.7659
G1 X14.1123 Y-23.7840
G1 X14.1207 Y-23.8018
G1 X14.1299 Y-23.8191
G1 X14.1400 Y-23.8359
G1 X14.1509 Y-23.8523
G1 X14.1626 Y-23.8680
G1 X14.1751 Y-23.8832
G1 X14.1883 Y-23.8978
G1 X14.2022 Y-23.9116
G1 X14.2167 Y-23.9248
G1 X14.2319 Y-23.9373
G1 X14.2476 Y-23.9490
G1 X14.2640 Y-23.9599
G1 X14.2808 Y-23.9700
G1 X14.2981 Y-23.9792
G1 X14.3249 Y-23.9915
G1 X14.3432 Y-23.9986
G1 X14.3619 Y-24.0047
G1 X14.3808 Y-24.0100
G1 X14.3999 Y-24.0143
G1 X14.4193 Y-24.0176
G1 X14.4388 Y-24.0200
G1 X14.4583 Y-24.0215
G1 X14.4780 Y-24.0219
G0 Z2.0000
G0 X10.1893 Y-26.5610
F800
G1 Z-0.0500 F800
F1000
G1 X11.8998 Y-28.2715
G1 X11.8998 Y-31.9962
G1 X11.8829 Y-32.0089
G1 X11.8677 Y-32.0213
G1 X11.7878 Y-32.0938
G1 X11.7672 Y-32.1149
G1 X11.7079 Y-32.1803
G1 X11.6951 Y-32.1952
G1 X11.6830 Y-32.2107
G1 X11.6304 Y-32.2816
G1 X11.6191 Y-32.2977
G1 X11.6086 Y-32.3143
G1 X11.5631 Y-32.3900
G1 X11.5490 Y-32.4158
G1 X11.5028 Y-32.5134
G1 X11.4919 Y-32.5407
G1 X11.4621 Y-32.6239
G1 X11.4559 Y-32.6425
G1 X11.4507 Y-32.6615
G1 X11.4293 Y-32.7471
G1 X11.4249 Y-32.7663
G1 X11.4216 Y-32.7856
G1 X11.4086 Y-32.8730
G1 X11.4062 Y-32.8925
G1 X11.4048 Y-32.9121
G1 X11.4005 Y-33.0003
G1 X11.4000 Y-33.0199
G1 X11.4005 Y-33.0395
G1 X11.4048 Y-33.1278
G1 X11.4062 Y-33.1473
G1 X11.4086 Y-33.1668
G1 X11.4216 Y-33.2542
G1 X11.4249 Y-33.2735
G1 X11.4293 Y-33.2927
G1 X11.4507 Y-33.3784
G1 X11.4559 Y-33.3973
G1 X11.4621 Y-33.4159
G1 X11.4919 Y-33.4991
G1 X11.5028 Y-33.5264
G1 X11.5490 Y-33.6240
G1 X11.5631 Y-33.6498
G1 X11.6086 Y-33.7256
G1 X11.6191 Y-33.7422
G1 X11.6304 Y-33.7582
G1 X11.6830 Y-33.8292
G1 X11.6951 Y-33.8446
G1 X11.7079 Y-33.8595
G1 X11.7672 Y-33.9249
G1 X11.7878 Y-33.9460
G1 X11.8677 Y-34.0185
G1 X11.8829 Y-34.0310
G1 X11.8998 Y-34.0436
G1 X11.8998 Y-42.3381
G1 X11.8853 Y-42.3514
G1 X11.8715 Y-42.3653
G1 X11.8081 Y-42.4352
G1 X11.7897 Y-42.4582
G1 X11.7394 Y-42.5263
G1 X11.7233 Y-42.5509
G1 X11.6849 Y-42.6151
G1 X11.6752 Y-42.6322
G1 X11.6664 Y-42.6497
G1 X11.6303 Y-42.7262
G1 X11.6194 Y-42.7536
G1 X11.5942 Y-42.8240
G1 X11.5880 Y-42.8426
G1 X11.5828 Y-42.8615
G1 X11.5646 Y-42.9341
G1 X11.5603 Y-42.9532
G1 X11.5569 Y-42.9726
G1 X11.5460 Y-43.0465
G1 X11.5436 Y-43.0660
G1 X11.5421 Y-43.0856
G1 X11.5385 Y-43.1603
G1 X11.5380 Y-43.1799
G1 X11.5385 Y-43.1995
G1 X11.5421 Y-43.2742
G1 X11.5436 Y-43.2938
G1 X11.5460 Y-43.3133
G1 X11.5569 Y-43.3873
G1 X11.5603 Y-43.4066
G1 X11.5646 Y-43.4258
G1 X11.5828 Y-43.4983
G1 X11.5880 Y-43.5172
G1 X11.5942 Y-43.5359
G1 X11.6194 Y-43.6063
G1 X11.6303 Y-43.6336
G1 X11.6664 Y-43.7101
G1 X11.6752 Y-43.7277
G1 X11.6849 Y-43.7448
G1 X11.7233 Y-43.8089
G1 X11.7394 Y-43.8336
G1 X11.7897 Y-43.9016
G1 X11.8081 Y-43.9246
G1 X11.8715 Y-43.9946
G1 X11.8853 Y-44.0084
G1 X11.8998 Y-44.0217
G1 X11.8998 Y-49.7840
G1 X11.9003 Y-49.8036
G1 X11.9028 Y-49.8527
G1 X11.9061 Y-49.8819
G1 X11.9118 Y-49.9208
G1 X11.9152 Y-49.9401
G1 X11.9195 Y-49.9593
G1 X11.9290 Y-49.9974
G1 X11.9372 Y-50.0256
G1 X11.9571 Y-50.0811
G1 X11.9687 Y-50.1082
G1 X11.9855 Y-50.1437
G1 X11.9943 Y-50.1612
G1 X12.0040 Y-50.1783
G1 X12.0242 Y-50.2120
G1 X12.0402 Y-50.2367
G1 X12.0753 Y-50.2840
G1 X12.0878 Y-50.2992
G1 X12.1206 Y-50.3356
G1 X12.1342 Y-50.3498
G1 X12.3200 Y-50.5356
G1 X12.3149 Y-50.5563
G1 X12.3111 Y-50.5755
G1 X12.2967 Y-50.6726
G1 X12.2941 Y-50.7020
G1 X12.2903 Y-50.7804
G1 X12.2898 Y-50.8000
G1 X12.2903 Y-50.8196
G1 X12.2941 Y-50.8980
G1 X12.2956 Y-50.9176
G1 X12.2980 Y-50.9371
G1 X12.3095 Y-51.0148
G1 X12.3149 Y-51.0437
G1 X12.3387 Y-51.1389
G1 X12.3476 Y-51.1670
G1 X12.3741 Y-51.2409
G1 X12.3812 Y-51.2592
G1 X12.3891 Y-51.2772
G1 X12.4227 Y-51.3481
G1 X12.4315 Y-51.3657
G1 X12.4412 Y-51.3828
G1 X12.4815 Y-51.4501
G1 X12.4920 Y-51.4667
G1 X12.5034 Y-51.4827
G1 X12.5501 Y-51.5458
G1 X12.5622 Y-51.5613
G1 X12.5750 Y-51.5761
G1 X12.6277 Y-51.6343
G1 X12.6413 Y-51.6485
G1 X12.6555 Y-51.6621
G1 X12.7137 Y-51.7148
G1 X12.7285 Y-51.7276
G1 X12.7440 Y-51.7397
G1 X12.8071 Y-51.7865
G1 X12.8231 Y-51.7978
G1 X12.8397 Y-51.8083
G1 X12.9071 Y-51.8486
G1 X12.9241 Y-51.8583
G1 X12.9417 Y-51.8671
G1 X13.0126 Y-51.9007
G1 X13.0306 Y-51.9087
G1 X13.0489 Y-51.9157
G1 X13.1228 Y-51.9422
G1 X13.1415 Y-51.9483
G1 X13.1604 Y-51.9536
G1 X13.2365 Y-51.9726
G1 X13.2557 Y-51.9769
G1 X13.2750 Y-51.9803
G1 X13.3527 Y-51.9918
G1 X13.3722 Y-51.9942
G1 X13.3918 Y-51.9957
G1 X13.4702 Y-51.9995
G1 X13.4898 Y-52.0000
G1 X13.5094 Y-51.9995
G1 X13.5879 Y-51.9957
G1 X13.6172 Y-51.9931
G1 X13.7046 Y-51.9803
G1 X13.7239 Y-51.9769
G1 X13.7431 Y-51.9726
G1 X13.8192 Y-51.9536
G1 X13.8382 Y-51.9483
G1 X13.8568 Y-51.9422
G1 X13.9307 Y-51.9157
G1 X13.9490 Y-51.9087
G1 X13.9670 Y-51.9007
G1 X14.0379 Y-51.8671
G1 X14.0555 Y-51.8583
G1 X14.0726 Y-51.8486
G1 X14.1399 Y-51.8083
G1 X14.1565 Y-51.7978
G1 X14.1725 Y-51.7865
G1 X14.2356 Y-51.7397
G1 X14.2511 Y-51.7276
G1 X14.2659 Y-51.7148
G1 X14.3241 Y-51.6621
G1 X14.3383 Y-51.6485
G1 X14.3519 Y-51.6343
G1 X14.4046 Y-51.5761
G1 X14.4236 Y-51.5536
G1 X14.4820 Y-51.4748
G1 X14.4981 Y-51.4501
G1 X14.5384 Y-51.3828
G1 X14.5481 Y-51.3657
G1 X14.5569 Y-51.3481
G1 X14.5946 Y-51.2682
G1 X14.6055 Y-51.2409
G1 X14.6320 Y-51.1670
G1 X14.6381 Y-51.1483
G1 X14.6434 Y-51.1294
G1 X14.6625 Y-51.0533
G1 X14.6668 Y-51.0341
G1 X14.6701 Y-51.0148
G1 X14.6816 Y-50.9371
G1 X14.6840 Y-50.9176
G1 X14.6855 Y-50.8980
G1 X14.6893 Y-50.8196
G1 X14.6898 Y-50.8000
G1 X14.6893 Y-50.7804
G1 X14.6855 Y-50.7020
G1 X14.6840 Y-50.6824
G1 X14.6816 Y-50.6629
G1 X14.6701 Y-50.5852
G1 X14.6668 Y-50.5659
G1 X14.6625 Y-50.5467
G1 X14.6434 Y-50.4706
G1 X14.6381 Y-50.4517
G1 X14.6320 Y-50.4330
G1 X14.6055 Y-50.3591
G1 X14.5985 Y-50.3408
G1 X14.5905 Y-50.3228
G1 X14.5526 Y-50.2430
G1 X14.5384 Y-50.2172
G1 X14.4981 Y-50.1499
G1 X14.4876 Y-50.1333
G1 X14.4763 Y-50.1173
G1 X14.4295 Y-50.0542
G1 X14.4111 Y-50.0312
G1 X14.3519 Y-49.9657
G1 X14.3383 Y-49.9515
G1 X14.3241 Y-49.9379
G1 X14.2659 Y-49.8852
G1 X14.2511 Y-49.8724
G1 X14.2356 Y-49.8603
G1 X14.1725 Y-49.8135
G1 X14.1483 Y-49.7969
G1 X14.0726 Y-49.7514
G1 X14.0555 Y-49.7417
G1 X14.0379 Y-49.7329
G1 X13.9670 Y-49.6993
G1 X13.9399 Y-49.6877
G1 X13.8568 Y-49.6578
G1 X13.8287 Y-49.6489
G1 X13.7335 Y-49.6251
G1 X13.7143 Y-49.6213
G1 X13.6609 Y-49.6132
G1 X13.5002 Y-49.4525
G1 X13.5002 Y-44.0216
G1 X13.5146 Y-44.0084
G1 X13.5285 Y-43.9946
G1 X13.5919 Y-43.9246
G1 X13.6103 Y-43.9016
G1 X13.6606 Y-43.8336
G1 X13.6766 Y-43.8089
G1 X13.7151 Y-43.7448
G1 X13.7248 Y-43.7277
G1 X13.7336 Y-43.7101
G1 X13.7696 Y-43.6336
G1 X13.7806 Y-43.6063
G1 X13.8058 Y-43.5359
G1 X13.8119 Y-43.5172
G1 X13.8172 Y-43.4983
G1 X13.8353 Y-43.4258
G1 X13.8396 Y-43.4066
G1 X13.8430 Y-43.3873
G1 X13.8540 Y-43.3133
G1 X13.8564 Y-43.2938
G1 X13.8578 Y-43.2742
G1 X13.8615 Y-43.1995
G1 X13.8620 Y-43.1799
G1 X13.8615 Y-43.1603
G1 X13.8578 Y-43.0856
G1 X13.8564 Y-43.0660
G1 X13.8540 Y-43.0465
G1 X13.8430 Y-42.9726
G1 X13.8396 Y-42.9532
G1 X13.8353 Y-42.9341
G1 X13.8172 Y-42.8615
G1 X13.8119 Y-42.8426
G1 X13.8058 Y-42.8240
G1 X13.7806 Y-42.7536
G1 X13.7696 Y-42.7262
G1 X13.7336 Y-42.6497
G1 X13.7248 Y-42.6322
G1 X13.7151 Y-42.6151
G1 X13.6766 Y-42.5509
G1 X13.6606 Y-42.5263
G1 X13.6103 Y-42.4582
G1 X13.5919 Y-42.4352
G1 X13.5285 Y-42.3653
G1 X13.5146 Y-42.3514
G1 X13.5002 Y-42.3382
G1 X13.5002 Y-34.0436
G1 X13.5170 Y-34.0310
G1 X13.5322 Y-34.0185
G1 X13.6122 Y-33.9460
G1 X13.6327 Y-33.9249
G1 X13.6921 Y-33.8595
G1 X13.7049 Y-33.8446
G1 X13.7170 Y-33.8292
G1 X13.7696 Y-33.7582
G1 X13.7809 Y-33.7422
G1 X13.7914 Y-33.7256
G1 X13.8368 Y-33.6498
G1 X13.8510 Y-33.6240
G1 X13.8971 Y-33.5264
G1 X13.9081 Y-33.4991
G1 X13.9378 Y-33.4159
G1 X13.9440 Y-33.3973
G1 X13.9492 Y-33.3784
G1 X13.9707 Y-33.2927
G1 X13.9750 Y-33.2735
G1 X13.9783 Y-33.2542
G1 X13.9913 Y-33.1668
G1 X13.9937 Y-33.1473
G1 X13.9952 Y-33.1278
G1 X13.9995 Y-33.0395
G1 X14.0000 Y-33.0199
G1 X13.9995 Y-33.0003
G1 X13.9952 Y-32.9121
G1 X13.9937 Y-32.8925
G1 X13.9913 Y-32.8730
G1 X13.9783 Y-32.7856
G1 X13.9750 Y-32.7663
G1 X13.9707 Y-32.7471
G1 X13.9492 Y-32.6615
G1 X13.9440 Y-32.6425
G1 X13.9378 Y-32.6239
G1 X13.9081 Y-32.5407
G1 X13.8971 Y-32.5134
G1 X13.8510 Y-32.4158
G1 X13.8368 Y-32.3900
G1 X13.7914 Y-32.3143
G1 X13.7809 Y-32.2977
G1 X13.7696 Y-32.2816
G1 X13.7170 Y-32.2107
G1 X13.7049 Y-32.1952
G1 X13.6921 Y-32.1803
G1 X13.6327 Y-32.1149
G1 X13.6122 Y-32.0938
G1 X13.5322 Y-32.0213
G1 X13.5170 Y-32.0089
G1 X13.5002 Y-31.9963
G1 X13.5002 Y-27.9400
G1 X13.4997 Y-27.9204
G1 X13.4978 Y-27.8811
G1 X13.4953 Y-27.8518
G1 X13.4882 Y-27.8032
G1 X13.4848 Y-27.7839
G1 X13.4805 Y-27.7647
G1 X13.4710 Y-27.7266
G1 X13.4657 Y-27.7077
G1 X13.4596 Y-27.6891
G1 X13.4429 Y-27.6429
G1 X13.4354 Y-27.6248
G1 X13.4145 Y-27.5803
G1 X13.4057 Y-27.5628
G1 X13.3960 Y-27.5457
G1 X13.3707 Y-27.5037
G1 X13.3598 Y-27.4873
G1 X13.3306 Y-27.4478
G1 X13.3186 Y-27.4324
G1 X13.3057 Y-27.4175
G1 X13.2794 Y-27.3884
G1 X13.2658 Y-27.3742
G1 X11.3210 Y-25.4294
G1 X11.3218 Y-25.4098
G1 X11.3218 Y-25.3901
G1 X11.3172 Y-25.2958
G1 X11.3140 Y-25.2666
G1 X11.3014 Y-25.1829
G1 X11.2953 Y-25.1541
G1 X11.2772 Y-25.0816
G1 X11.2719 Y-25.0626
G1 X11.2658 Y-25.0440
G1 X11.2372 Y-24.9644
G1 X11.2256 Y-24.9373
G1 X11.1936 Y-24.8697
G1 X11.1848 Y-24.8522
G1 X11.1751 Y-24.8351
G1 X11.1366 Y-24.7710
G1 X11.1261 Y-24.7544
G1 X11.1148 Y-24.7383
G1 X11.0703 Y-24.6783
G1 X11.0582 Y-24.6628
G1 X11.0454 Y-24.6479
G1 X10.9952 Y-24.5925
G1 X10.9816 Y-24.5783
G1 X10.9674 Y-24.5647
G1 X10.9120 Y-24.5145
G1 X10.8971 Y-24.5017
G1 X10.8817 Y-24.4896
G1 X10.8216 Y-24.4451
G1 X10.8055 Y-24.4338
G1 X10.7890 Y-24.4233
G1 X10.7248 Y-24.3848
G1 X10.7077 Y-24.3751
G1 X10.6902 Y-24.3663
G1 X10.6226 Y-24.3343
G1 X10.6046 Y-24.3264
G1 X10.5863 Y-24.3193
G1 X10.5159 Y-24.2941
G1 X10.4973 Y-24.2880
G1 X10.4784 Y-24.2827
G1 X10.4058 Y-24.2646
G1 X10.3867 Y-24.2603
G1 X10.3673 Y-24.2569
G1 X10.2934 Y-24.2459
G1 X10.2739 Y-24.2435
G1 X10.2543 Y-24.2421
G1 X10.1796 Y-24.2384
G1 X10.1502 Y-24.2381
G1 X10.0657 Y-24.2421
G1 X10.0461 Y-24.2435
G1 X10.0266 Y-24.2459
G1 X9.9526 Y-24.2569
G1 X9.9333 Y-24.2603
G1 X9.9141 Y-24.2646
G1 X9.8416 Y-24.2827
G1 X9.8227 Y-24.2880
G1 X9.8040 Y-24.2941
G1 X9.7336 Y-24.3193
G1 X9.7153 Y-24.3264
G1 X9.6973 Y-24.3343
G1 X9.6297 Y-24.3663
G1 X9.6122 Y-24.3751
G1 X9.5951 Y-24.3848
G1 X9.5310 Y-24.4233
G1 X9.5144 Y-24.4338
G1 X9.4983 Y-24.4451
G1 X9.4383 Y-24.4896
G1 X9.4228 Y-24.5017
G1 X9.4079 Y-24.5145
G1 X9.3525 Y-24.5647
G1 X9.3383 Y-24.5783
G1 X9.3248 Y-24.5925
G1 X9.2746 Y-24.6479
G1 X9.2617 Y-24.6628
G1 X9.2497 Y-24.6783
G1 X9.2051 Y-24.7383
G1 X9.1938 Y-24.7544
G1 X9.1833 Y-24.7710
G1 X9.1449 Y-24.8351
G1 X9.1352 Y-24.8522
G1 X9.1264 Y-24.8697
G1 X9.0944 Y-24.9373
G1 X9.0864 Y-24.9553
G1 X9.0794 Y-24.9736
G1 X9.0542 Y-25.0440
G1 X9.0480 Y-25.0626
G1 X9.0428 Y-25.0816
G1 X9.0246 Y-25.1541
G1 X9.0203 Y-25.1732
G1 X9.0169 Y-25.1926
G1 X9.0060 Y-25.2666
G1 X9.0036 Y-25.2860
G1 X9.0021 Y-25.3056
G1 X8.9985 Y-25.3803
G1 X8.9981 Y-25.4098
G1 X9.0021 Y-25.4943
G1 X9.0036 Y-25.5138
G1 X9.0060 Y-25.5333
G1 X9.0169 Y-25.6073
G1 X9.0203 Y-25.6266
G1 X9.0246 Y-25.6458
G1 X9.0428 Y-25.7183
G1 X9.0480 Y-25.7373
G1 X9.0542 Y-25.7559
G1 X9.0794 Y-25.8263
G1 X9.0864 Y-25.8446
G1 X9.0944 Y-25.8626
G1 X9.1264 Y-25.9302
G1 X9.1352 Y-25.9477
G1 X9.1449 Y-25.9648
G1 X9.1833 Y-26.0289
G1 X9.1938 Y-26.0455
G1 X9.2051 Y-26.0616
G1 X9.2497 Y-26.1216
G1 X9.2617 Y-26.1371
G1 X9.2746 Y-26.1520
G1 X9.3248 Y-26.2074
G1 X9.3453 Y-26.2285
G1 X9.4079 Y-26.2854
G1 X9.4228 Y-26.2982
G1 X9.4383 Y-26.3103
G1 X9.4983 Y-26.3548
G1 X9.5144 Y-26.3661
G1 X9.5310 Y-26.3766
G1 X9.5951 Y-26.4151
G1 X9.6122 Y-26.4247
G1 X9.6297 Y-26.4336
G1 X9.6973 Y-26.4655
G1 X9.7244 Y-26.4771
G1 X9.8040 Y-26.5057
G1 X9.8227 Y-26.5119
G1 X9.8416 Y-26.5171
G1 X9.9141 Y-26.5353
G1 X9.9429 Y-26.5414
G1 X10.0266 Y-26.5539
G1 X10.0559 Y-26.5572
G1 X10.1502 Y-26.5618
G1 X10.1698 Y-26.5618
G1 X10.1893 Y-26.5610
G0 Z2.0000
G0 X14.4398 Y-34.5361
F800
G1 Z-0.0500 F800
F1000
G1 X14.4230 Y-34.5488
G1 X14.4078 Y-34.5612
G1 X14.3278 Y-34.6337
G1 X14.3072 Y-34.6548
G1 X14.2414 Y-34.7276
G1 X14.2230 Y-34.7506
G1 X14.1704 Y-34.8215
G1 X14.1591 Y-34.8376
G1 X14.1486 Y-34.8542
G1 X14.0982 Y-34.9384
G1 X14.0847 Y-34.9646
G1 X14.0469 Y-35.0444
G1 X14.0390 Y-35.0624
G1 X14.0319 Y-35.0807
G1 X14.0021 Y-35.1638
G1 X13.9960 Y-35.1825
G1 X13.9907 Y-35.2014
G1 X13.9693 Y-35.2871
G1 X13.9650 Y-35.3062
G1 X13.9616 Y-35.3256
G1 X13.9487 Y-35.4129
G1 X13.9463 Y-35.4324
G1 X13.9448 Y-35.4520
G1 X13.9405 Y-35.5402
G1 X13.9400 Y-35.5598
G1 X13.9405 Y-35.5795
G1 X13.9448 Y-35.6677
G1 X13.9463 Y-35.6873
G1 X13.9487 Y-35.7067
G1 X13.9616 Y-35.7941
G1 X13.9650 Y-35.8135
G1 X13.9693 Y-35.8326
G1 X13.9907 Y-35.9183
G1 X13.9960 Y-35.9372
G1 X14.0021 Y-35.9559
G1 X14.0319 Y-36.0390
G1 X14.0428 Y-36.0664
G1 X14.0847 Y-36.1551
G1 X14.0935 Y-36.1727
G1 X14.1032 Y-36.1897
G1 X14.1486 Y-36.2655
G1 X14.1646 Y-36.2902
G1 X14.2290 Y-36.3769
G1 X14.2479 Y-36.3994
G1 X14.3072 Y-36.4649
G1 X14.3208 Y-36.4791
G1 X14.3350 Y-36.4926
G1 X14.4078 Y-36.5584
G1 X14.4230 Y-36.5709
G1 X14.4398 Y-36.5835
G1 X14.4398 Y-37.2581
G1 X14.4253 Y-37.2714
G1 X14.4115 Y-37.2853
G1 X14.3546 Y-37.3479
G1 X14.3417 Y-37.3628
G1 X14.3297 Y-37.3782
G1 X14.2851 Y-37.4383
G1 X14.2684 Y-37.4626
G1 X14.2249 Y-37.5351
G1 X14.2152 Y-37.5522
G1 X14.2064 Y-37.5697
G1 X14.1744 Y-37.6373
G1 X14.1664 Y-37.6552
G1 X14.1594 Y-37.6736
G1 X14.1342 Y-37.7440
G1 X14.1280 Y-37.7626
G1 X14.1228 Y-37.7815
G1 X14.1046 Y-37.8541
G1 X14.1003 Y-37.8732
G1 X14.0969 Y-37.8926
G1 X14.0860 Y-37.9665
G1 X14.0836 Y-37.9860
G1 X14.0821 Y-38.0056
G1 X14.0785 Y-38.0803
G1 X14.0780 Y-38.0999
G1 X14.0785 Y-38.1195
G1 X14.0821 Y-38.1942
G1 X14.0836 Y-38.2138
G1 X14.0860 Y-38.2333
G1 X14.0969 Y-38.3073
G1 X14.1023 Y-38.3362
G1 X14.1228 Y-38.4183
G1 X14.1280 Y-38.4372
G1 X14.1342 Y-38.4559
G1 X14.1594 Y-38.5263
G1 X14.1664 Y-38.5446
G1 X14.1744 Y-38.5625
G1 X14.2064 Y-38.6301
G1 X14.2152 Y-38.6477
G1 X14.2249 Y-38.6648
G1 X14.2633 Y-38.7289
G1 X14.2738 Y-38.7455
G1 X14.2851 Y-38.7615
G1 X14.3297 Y-38.8216
G1 X14.3417 Y-38.8371
G1 X14.3546 Y-38.8520
G1 X14.4048 Y-38.9074
G1 X14.4183 Y-38.9216
G1 X14.4325 Y-38.9351
G1 X14.4879 Y-38.9853
G1 X14.5028 Y-38.9982
G1 X14.5183 Y-39.0102
G1 X14.5783 Y-39.0548
G1 X14.5944 Y-39.0661
G1 X14.6110 Y-39.0766
G1 X14.6751 Y-39.1150
G1 X14.6922 Y-39.1247
G1 X14.7097 Y-39.1335
G1 X14.7773 Y-39.1655
G1 X14.7953 Y-39.1735
G1 X14.8136 Y-39.1805
G1 X14.8840 Y-39.2057
G1 X14.9027 Y-39.2119
G1 X14.9216 Y-39.2171
G1 X14.9941 Y-39.2353
G1 X15.0133 Y-39.2396
G1 X15.0326 Y-39.2429
G1 X15.1066 Y-39.2539
G1 X15.1261 Y-39.2563
G1 X15.1457 Y-39.2578
G1 X15.2203 Y-39.2614
G1 X15.2400 Y-39.2619
G1 X15.2596 Y-39.2614
G1 X15.3343 Y-39.2578
G1 X15.3539 Y-39.2563
G1 X15.3734 Y-39.2539
G1 X15.4473 Y-39.2429
G1 X15.4763 Y-39.2376
G1 X15.5584 Y-39.2171
G1 X15.5773 Y-39.2119
G1 X15.5959 Y-39.2057
G1 X15.6663 Y-39.1805
G1 X15.6846 Y-39.1735
G1 X15.7026 Y-39.1655
G1 X15.7702 Y-39.1335
G1 X15.7877 Y-39.1247
G1 X15.8048 Y-39.1150
G1 X15.8690 Y-39.0766
G1 X15.8855 Y-39.0661
G1 X15.9016 Y-39.0548
G1 X15.9617 Y-39.0102
G1 X15.9771 Y-38.9982
G1 X15.9920 Y-38.9853
G1 X16.0474 Y-38.9351
G1 X16.0616 Y-38.9216
G1 X16.0752 Y-38.9074
G1 X16.1254 Y-38.8520
G1 X16.1382 Y-38.8371
G1 X16.1503 Y-38.8216
G1 X16.1948 Y-38.7615
G1 X16.2061 Y-38.7455
G1 X16.2166 Y-38.7289
G1 X16.2551 Y-38.6648
G1 X16.2648 Y-38.6477
G1 X16.2736 Y-38.6301
G1 X16.3056 Y-38.5625
G1 X16.3135 Y-38.5446
G1 X16.3206 Y-38.5263
G1 X16.3458 Y-38.4559
G1 X16.3519 Y-38.4372
G1 X16.3572 Y-38.4183
G1 X16.3753 Y-38.3458
G1 X16.3796 Y-38.3266
G1 X16.3830 Y-38.3073
G1 X16.3940 Y-38.2333
G1 X16.3964 Y-38.2138
G1 X16.3978 Y-38.1942
G1 X16.4015 Y-38.1195
G1 X16.4020 Y-38.0999
G1 X16.4015 Y-38.0803
G1 X16.3978 Y-38.0056
G1 X16.3953 Y-37.9763
G1 X16.3814 Y-37.8829
G1 X16.3753 Y-37.8541
G1 X16.3572 Y-37.7815
G1 X16.3519 Y-37.7626
G1 X16.3458 Y-37.7440
G1 X16.3206 Y-37.6736
G1 X16.3135 Y-37.6552
G1 X16.3056 Y-37.6373
G1 X16.2736 Y-37.5697
G1 X16.2648 Y-37.5522
G1 X16.2551 Y-37.5351
G1 X16.2166 Y-37.4709
G1 X16.2061 Y-37.4543
G1 X16.1948 Y-37.4383
G1 X16.1443 Y-37.3704
G1 X16.1254 Y-37.3479
G1 X16.0752 Y-37.2925
G1 X16.0616 Y-37.2783
G1 X16.0402 Y-37.2582
G1 X16.0402 Y-36.5835
G1 X16.0570 Y-36.5709
G1 X16.0722 Y-36.5584
G1 X16.1522 Y-36.4859
G1 X16.1728 Y-36.4649
G1 X16.2386 Y-36.3921
G1 X16.2570 Y-36.3691
G1 X16.3096 Y-36.2981
G1 X16.3209 Y-36.2821
G1 X16.3314 Y-36.2655
G1 X16.3768 Y-36.1897
G1 X16.3865 Y-36.1727
G1 X16.3953 Y-36.1551
G1 X16.4331 Y-36.0753
G1 X16.4410 Y-36.0573
G1 X16.4481 Y-36.0390
G1 X16.4779 Y-35.9559
G1 X16.4840 Y-35.9372
G1 X16.4893 Y-35.9183
G1 X16.5107 Y-35.8326
G1 X16.5150 Y-35.8135
G1 X16.5184 Y-35.7941
G1 X16.5313 Y-35.7067
G1 X16.5337 Y-35.6873
G1 X16.5352 Y-35.6677
G1 X16.5399 Y-35.5697
G1 X16.5395 Y-35.5402
G1 X16.5352 Y-35.4520
G1 X16.5337 Y-35.4324
G1 X16.5313 Y-35.4129
G1 X16.5184 Y-35.3256
G1 X16.5150 Y-35.3062
G1 X16.5107 Y-35.2871
G1 X16.4893 Y-35.2014
G1 X16.4840 Y-35.1825
G1 X16.4779 Y-35.1638
G1 X16.4481 Y-35.0807
G1 X16.4372 Y-35.0533
G1 X16.3910 Y-34.9557
G1 X16.3768 Y-34.9299
G1 X16.3314 Y-34.8542
G1 X16.3209 Y-34.8376
G1 X16.3096 Y-34.8215
G1 X16.2510 Y-34.7428
G1 X16.2321 Y-34.7203
G1 X16.1728 Y-34.6548
G1 X16.1592 Y-34.6406
G1 X16.1450 Y-34.6271
G1 X16.0722 Y-34.5612
G1 X16.0570 Y-34.5488
G1 X16.0402 Y-34.5361
G1 X16.0402 Y-28.7817
G1 X16.0616 Y-28.7616
G1 X16.0817 Y-28.7402
G1 X23.2882 Y-28.7402
G1 X23.3014 Y-28.7546
G1 X23.3153 Y-28.7685
G1 X23.3779 Y-28.8254
G1 X23.3928 Y-28.8382
G1 X23.4083 Y-28.8503
G1 X23.4683 Y-28.8948
G1 X23.4926 Y-28.9115
G1 X23.5651 Y-28.9551
G1 X23.5822 Y-28.9647
G1 X23.5997 Y-28.9736
G1 X23.6673 Y-29.0055
G1 X23.6944 Y-29.0171
G1 X23.7833 Y-29.0489
G1 X23.8116 Y-29.0571
G1 X23.8841 Y-29.0753
G1 X23.9032 Y-29.0796
G1 X23.9226 Y-29.0830
G1 X23.9966 Y-29.0939
G1 X24.0160 Y-29.0963
G1 X24.0356 Y-29.0978
G1 X24.1103 Y-29.1015
G1 X24.1299 Y-29.1019
G1 X24.1496 Y-29.1015
G1 X24.2243 Y-29.0978
G1 X24.2536 Y-29.0953
G1 X24.3470 Y-29.0814
G1 X24.3758 Y-29.0753
G1 X24.4483 Y-29.0571
G1 X24.4673 Y-29.0519
G1 X24.4859 Y-29.0457
G1 X24.5563 Y-29.0206
G1 X24.5746 Y-29.0135
G1 X24.5926 Y-29.0055
G1 X24.6602 Y-28.9736
G1 X24.6777 Y-28.9647
G1 X24.6948 Y-28.9551
G1 X24.7589 Y-28.9166
G1 X24.7755 Y-28.9061
G1 X24.7916 Y-28.8948
G1 X24.8516 Y-28.8503
G1 X24.8671 Y-28.8382
G1 X24.8820 Y-28.8254
G1 X24.9374 Y-28.7751
G1 X24.9516 Y-28.7616
G1 X24.9651 Y-28.7474
G1 X25.0154 Y-28.6920
G1 X25.0282 Y-28.6771
G1 X25.0403 Y-28.6616
G1 X25.0848 Y-28.6016
G1 X25.0961 Y-28.5855
G1 X25.1066 Y-28.5689
G1 X25.1451 Y-28.5048
G1 X25.1547 Y-28.4877
G1 X25.1636 Y-28.4702
G1 X25.1955 Y-28.4026
G1 X25.2035 Y-28.3846
G1 X25.2106 Y-28.3663
G1 X25.2357 Y-28.2959
G1 X25.2419 Y-28.2773
G1 X25.2471 Y-28.2583
G1 X25.2653 Y-28.1858
G1 X25.2696 Y-28.1666
G1 X25.2730 Y-28.1473
G1 X25.2839 Y-28.0733
G1 X25.2863 Y-28.0538
G1 X25.2878 Y-28.0343
G1 X25.2915 Y-27.9596
G1 X25.2919 Y-27.9399
G1 X25.2915 Y-27.9203
G1 X25.2878 Y-27.8456
G1 X25.2863 Y-27.8260
G1 X25.2839 Y-27.8066
G1 X25.2730 Y-27.7326
G1 X25.2696 Y-27.7132
G1 X25.2653 Y-27.6941
G1 X25.2471 Y-27.6216
G1 X25.2419 Y-27.6026
G1 X25.2357 Y-27.5840
G1 X25.2106 Y-27.5136
G1 X25.2035 Y-27.4953
G1 X25.1955 Y-27.4773
G1 X25.1636 Y-27.4097
G1 X25.1547 Y-27.3922
G1 X25.1451 Y-27.3751
G1 X25.1066 Y-27.3110
G1 X25.0961 Y-27.2944
G1 X25.0848 Y-27.2783
G1 X25.0403 Y-27.2183
G1 X25.0282 Y-27.2028
G1 X25.0154 Y-27.1879
G1 X24.9651 Y-27.1325
G1 X24.9516 Y-27.1183
G1 X24.9374 Y-27.1047
G1 X24.8820 Y-27.0545
G1 X24.8671 Y-27.0417
G1 X24.8516 Y-27.0296
G1 X24.7916 Y-26.9851
G1 X24.7755 Y-26.9738
G1 X24.7589 Y-26.9633
G1 X24.6948 Y-26.9248
G1 X24.6777 Y-26.9151
G1 X24.6602 Y-26.9063
G1 X24.5926 Y-26.8743
G1 X24.5746 Y-26.8664
G1 X24.5563 Y-26.8593
G1 X24.4859 Y-26.8341
G1 X24.4673 Y-26.8280
G1 X24.4483 Y-26.8227
G1 X24.3758 Y-26.8046
G1 X24.3566 Y-26.8003
G1 X24.3373 Y-26.7969
G1 X24.2633 Y-26.7859
G1 X24.2341 Y-26.7827
G1 X24.1398 Y-26.7781
G1 X24.1103 Y-26.7784
G1 X24.0356 Y-26.7821
G1 X24.0160 Y-26.7835
G1 X23.9966 Y-26.7859
G1 X23.9226 Y-26.7969
G1 X23.9032 Y-26.8003
G1 X23.8841 Y-26.8046
G1 X23.8116 Y-26.8227
G1 X23.7926 Y-26.8280
G1 X23.7740 Y-26.8341
G1 X23.7036 Y-26.8593
G1 X23.6853 Y-26.8664
G1 X23.6673 Y-26.8743
G1 X23.5997 Y-26.9063
G1 X23.5822 Y-26.9151
G1 X23.5651 Y-26.9248
G1 X23.5010 Y-26.9633
G1 X23.4763 Y-26.9793
G1 X23.4083 Y-27.0296
G1 X23.3853 Y-27.0480
G1 X23.3153 Y-27.1114
G1 X23.3014 Y-27.1253
G1 X23.2881 Y-27.1398
G1 X16.0818 Y-27.1398
G1 X16.0685 Y-27.1253
G1 X16.0546 Y-27.1114
G1 X15.9846 Y-27.0480
G1 X15.9617 Y-27.0296
G1 X15.8936 Y-26.9793
G1 X15.8690 Y-26.9633
G1 X15.8048 Y-26.9248
G1 X15.7877 Y-26.9151
G1 X15.7702 Y-26.9063
G1 X15.6937 Y-26.8703
G1 X15.6663 Y-26.8593
G1 X15.5959 Y-26.8341
G1 X15.5773 Y-26.8280
G1 X15.5584 Y-26.8227
G1 X15.4858 Y-26.8046
G1 X15.4667 Y-26.8003
G1 X15.4473 Y-26.7969
G1 X15.3734 Y-26.7859
G1 X15.3539 Y-26.7835
G1 X15.3343 Y-26.7821
G1 X15.2498 Y-26.7781
G1 X15.2203 Y-26.7784
G1 X15.1457 Y-26.7821
G1 X15.1261 Y-26.7835
G1 X15.1066 Y-26.7859
G1 X15.0326 Y-26.7969
G1 X15.0133 Y-26.8003
G1 X14.9941 Y-26.8046
G1 X14.9216 Y-26.8227
G1 X14.9027 Y-26.8280
G1 X14.8840 Y-26.8341
G1 X14.8136 Y-26.8593
G1 X14.7953 Y-26.8664
G1 X14.7773 Y-26.8743
G1 X14.7097 Y-26.9063
G1 X14.6922 Y-26.9151
G1 X14.6751 Y-26.9248
G1 X14.6110 Y-26.9633
G1 X14.5944 Y-26.9738
G1 X14.5783 Y-26.9851
G1 X14.5183 Y-27.0296
G1 X14.5028 Y-27.0417
G1 X14.4879 Y-27.0545
G1 X14.4325 Y-27.1047
G1 X14.4183 Y-27.1183
G1 X14.4048 Y-27.1325
G1 X14.3546 Y-27.1879
G1 X14.3417 Y-27.2028
G1 X14.3297 Y-27.2183
G1 X14.2851 Y-27.2783
G1 X14.2738 Y-27.2944
G1 X14.2633 Y-27.3110
G1 X14.2249 Y-27.3751
G1 X14.2152 Y-27.3922
G1 X14.2064 Y-27.4097
G1 X14.1744 Y-27.4773
G1 X14.1664 Y-27.4953
G1 X14.1594 Y-27.5136
G1 X14.1342 Y-27.5840
G1 X14.1280 Y-27.6026
G1 X14.1228 Y-27.6216
G1 X14.1046 Y-27.6941
G1 X14.1003 Y-27.7132
G1 X14.0969 Y-27.7326
G1 X14.0860 Y-27.8066
G1 X14.0827 Y-27.8358
G1 X14.0781 Y-27.9301
G1 X14.0785 Y-27.9596
G1 X14.0821 Y-28.0343
G1 X14.0836 Y-28.0538
G1 X14.0860 Y-28.0733
G1 X14.0969 Y-28.1473
G1 X14.1003 Y-28.1666
G1 X14.1046 Y-28.1858
G1 X14.1228 Y-28.2583
G1 X14.1280 Y-28.2773
G1 X14.1342 Y-28.2959
G1 X14.1594 Y-28.3663
G1 X14.1664 Y-28.3846
G1 X14.1744 Y-28.4026
G1 X14.2064 Y-28.4702
G1 X14.2152 Y-28.4877
G1 X14.2249 Y-28.5048
G1 X14.2633 Y-28.5689
G1 X14.2794 Y-28.5936
G1 X14.3297 Y-28.6616
G1 X14.3481 Y-28.6846
G1 X14.4115 Y-28.7546
G1 X14.4253 Y-28.7685
G1 X14.4398 Y-28.7817
G1 X14.4398 Y-34.5361
G0 Z2.0000
G0 X21.3053 Y-33.8669
F800
G1 Z-0.0500 F800
F1000
G1 X22.9689 Y-35.5306
G1 X22.9681 Y-35.5501
G1 X22.9681 Y-35.5697
G1 X22.9721 Y-35.6542
G1 X22.9735 Y-35.6738
G1 X22.9759 Y-35.6933
G1 X22.9869 Y-35.7673
G1 X22.9903 Y-35.7866
G1 X22.9946 Y-35.8058
G1 X23.0127 Y-35.8783
G1 X23.0180 Y-35.8972
G1 X23.0241 Y-35.9159
G1 X23.0493 Y-35.9863
G1 X23.0564 Y-36.0046
G1 X23.0643 Y-36.0225
G1 X23.0963 Y-36.0901
G1 X23.1099 Y-36.1163
G1 X23.1533 Y-36.1889
G1 X23.1638 Y-36.2055
G1 X23.1751 Y-36.2215
G1 X23.2196 Y-36.2816
G1 X23.2317 Y-36.2971
G1 X23.2445 Y-36.3120
G1 X23.2947 Y-36.3674
G1 X23.3083 Y-36.3816
G1 X23.3225 Y-36.3951
G1 X23.3779 Y-36.4453
G1 X23.3928 Y-36.4582
G1 X23.4083 Y-36.4702
G1 X23.4683 Y-36.5148
G1 X23.4844 Y-36.5261
G1 X23.5010 Y-36.5366
G1 X23.5651 Y-36.5750
G1 X23.5909 Y-36.5892
G1 X23.6762 Y-36.6296
G1 X23.7036 Y-36.6405
G1 X23.7833 Y-36.6689
G1 X23.8116 Y-36.6771
G1 X23.8841 Y-36.6953
G1 X23.9032 Y-36.6996
G1 X23.9226 Y-36.7029
G1 X24.0063 Y-36.7152
G1 X24.0356 Y-36.7178
G1 X24.1103 Y-36.7214
G1 X24.1299 Y-36.7219
G1 X24.1496 Y-36.7214
G1 X24.2243 Y-36.7178
G1 X24.2438 Y-36.7163
G1 X24.2633 Y-36.7139
G1 X24.3373 Y-36.7029
G1 X24.3566 Y-36.6996
G1 X24.3758 Y-36.6953
G1 X24.4578 Y-36.6746
G1 X24.4859 Y-36.6657
G1 X24.5563 Y-36.6405
G1 X24.5746 Y-36.6335
G1 X24.5926 Y-36.6255
G1 X24.6602 Y-36.5935
G1 X24.6777 Y-36.5847
G1 X24.6948 Y-36.5750
G1 X24.7589 Y-36.5366
G1 X24.7755 Y-36.5261
G1 X24.7916 Y-36.5148
G1 X24.8594 Y-36.4643
G1 X24.8820 Y-36.4453
G1 X24.9374 Y-36.3951
G1 X24.9516 Y-36.3816
G1 X24.9651 Y-36.3674
G1 X25.0154 Y-36.3120
G1 X25.0282 Y-36.2971
G1 X25.0403 Y-36.2816
G1 X25.0848 Y-36.2215
G1 X25.0961 Y-36.2055
G1 X25.1066 Y-36.1889
G1 X25.1451 Y-36.1248
G1 X25.1593 Y-36.0990
G1 X25.1955 Y-36.0225
G1 X25.2035 Y-36.0046
G1 X25.2106 Y-35.9863
G1 X25.2357 Y-35.9159
G1 X25.2419 Y-35.8972
G1 X25.2471 Y-35.8783
G1 X25.2653 Y-35.8058
G1 X25.2696 Y-35.7866
G1 X25.2730 Y-35.7673
G1 X25.2839 Y-35.6933
G1 X25.2863 Y-35.6738
G1 X25.2878 Y-35.6542
G1 X25.2915 Y-35.5795
G1 X25.2919 Y-35.5599
G1 X25.2915 Y-35.5403
G1 X25.2878 Y-35.4656
G1 X25.2863 Y-35.4460
G1 X25.2839 Y-35.4265
G1 X25.2730 Y-35.3526
G1 X25.2696 Y-35.3332
G1 X25.2653 Y-35.3141
G1 X25.2471 Y-35.2415
G1 X25.2419 Y-35.2226
G1 X25.2357 Y-35.2040
G1 X25.2106 Y-35.1336
G1 X25.2035 Y-35.1152
G1 X25.1955 Y-35.0973
G1 X25.1636 Y-35.0297
G1 X25.1547 Y-35.0122
G1 X25.1451 Y-34.9951
G1 X25.1066 Y-34.9309
G1 X25.0961 Y-34.9143
G1 X25.0848 Y-34.8983
G1 X25.0403 Y-34.8382
G1 X25.0282 Y-34.8228
G1 X25.0154 Y-34.8079
G1 X24.9651 Y-34.7525
G1 X24.9516 Y-34.7383
G1 X24.9374 Y-34.7247
G1 X24.8820 Y-34.6745
G1 X24.8671 Y-34.6617
G1 X24.8516 Y-34.6496
G1 X24.7916 Y-34.6051
G1 X24.7755 Y-34.5938
G1 X24.7589 Y-34.5832
G1 X24.6948 Y-34.5448
G1 X24.6690 Y-34.5306
G1 X24.5836 Y-34.4902
G1 X24.5563 Y-34.4793
G1 X24.4859 Y-34.4541
G1 X24.4673 Y-34.4480
G1 X24.4483 Y-34.4427
G1 X24.3758 Y-34.4245
G1 X24.3566 Y-34.4202
G1 X24.3373 Y-34.4169
G1 X24.2633 Y-34.4059
G1 X24.2341 Y-34.4027
G1 X24.1398 Y-34.3980
G1 X24.1201 Y-34.3980
G1 X24.1005 Y-34.3989
G1 X22.1558 Y-32.4542
G1 X22.1416 Y-32.4406
G1 X22.1125 Y-32.4143
G1 X22.0976 Y-32.4014
G1 X22.0822 Y-32.3894
G1 X22.0506 Y-32.3660
G1 X22.0346 Y-32.3547
G1 X22.0180 Y-32.3442
G1 X21.9843 Y-32.3240
G1 X21.9672 Y-32.3143
G1 X21.9497 Y-32.3055
G1 X21.9142 Y-32.2887
G1 X21.8962 Y-32.2807
G1 X21.8779 Y-32.2736
G1 X21.8409 Y-32.2604
G1 X21.8223 Y-32.2543
G1 X21.8034 Y-32.2490
G1 X21.7653 Y-32.2395
G1 X21.7461 Y-32.2352
G1 X21.7268 Y-32.2318
G1 X21.6879 Y-32.2261
G1 X21.6684 Y-32.2237
G1 X21.6489 Y-32.2222
G1 X21.6096 Y-32.2203
G1 X21.5900 Y-32.2198
G1 X21.3437 Y-32.2198
G1 X21.3310 Y-32.2029
G1 X21.3185 Y-32.1877
G1 X21.2460 Y-32.1077
G1 X21.2250 Y-32.0871
G1 X21.1522 Y-32.0213
G1 X21.1292 Y-32.0029
G1 X21.0582 Y-31.9503
G1 X21.0422 Y-31.9390
G1 X21.0256 Y-31.9285
G1 X20.9498 Y-31.8831
G1 X20.9328 Y-31.8734
G1 X20.9152 Y-31.8646
G1 X20.8354 Y-31.8268
G1 X20.8174 Y-31.8189
G1 X20.7991 Y-31.8118
G1 X20.7160 Y-31.7821
G1 X20.6973 Y-31.7759
G1 X20.6784 Y-31.7707
G1 X20.5927 Y-31.7492
G1 X20.5736 Y-31.7449
G1 X20.5542 Y-31.7415
G1 X20.4668 Y-31.7286
G1 X20.4376 Y-31.7253
G1 X20.3298 Y-31.7200
G1 X20.3003 Y-31.7204
G1 X20.2121 Y-31.7247
G1 X20.1925 Y-31.7262
G1 X20.1730 Y-31.7286
G1 X20.0857 Y-31.7415
G1 X20.0663 Y-31.7449
G1 X20.0472 Y-31.7492
G1 X19.9615 Y-31.7707
G1 X19.9426 Y-31.7759
G1 X19.9239 Y-31.7821
G1 X19.8408 Y-31.8118
G1 X19.8225 Y-31.8189
G1 X19.8045 Y-31.8268
G1 X19.7247 Y-31.8646
G1 X19.7071 Y-31.8734
G1 X19.6900 Y-31.8831
G1 X19.6143 Y-31.9285
G1 X19.5977 Y-31.9390
G1 X19.5816 Y-31.9503
G1 X19.5107 Y-32.0029
G1 X19.4952 Y-32.0150
G1 X19.4804 Y-32.0278
G1 X19.4149 Y-32.0871
G1 X19.3938 Y-32.1077
G1 X19.3213 Y-32.1877
G1 X19.3029 Y-32.2107
G1 X19.2503 Y-32.2816
G1 X19.2390 Y-32.2977
G1 X19.2285 Y-32.3143
G1 X19.1831 Y-32.3900
G1 X19.1734 Y-32.4071
G1 X19.1646 Y-32.4246
G1 X19.1269 Y-32.5045
G1 X19.1189 Y-32.5224
G1 X19.1118 Y-32.5407
G1 X19.0821 Y-32.6239
G1 X19.0759 Y-32.6425
G1 X19.0707 Y-32.6615
G1 X19.0492 Y-32.7471
G1 X19.0449 Y-32.7663
G1 X19.0416 Y-32.7856
G1 X19.0286 Y-32.8730
G1 X19.0262 Y-32.8925
G1 X19.0248 Y-32.9121
G1 X19.0204 Y-33.0003
G1 X19.0199 Y-33.0199
G1 X19.0204 Y-33.0395
G1 X19.0248 Y-33.1278
G1 X19.0262 Y-33.1473
G1 X19.0286 Y-33.1668
G1 X19.0416 Y-33.2542
G1 X19.0449 Y-33.2735
G1 X19.0492 Y-33.2927
G1 X19.0707 Y-33.3784
G1 X19.0759 Y-33.3973
G1 X19.0821 Y-33.4159
G1 X19.1118 Y-33.4991
G1 X19.1189 Y-33.5174
G1 X19.1269 Y-33.5354
G1 X19.1646 Y-33.6152
G1 X19.1734 Y-33.6327
G1 X19.1831 Y-33.6498
G1 X19.2285 Y-33.7256
G1 X19.2390 Y-33.7422
G1 X19.2503 Y-33.7582
G1 X19.3029 Y-33.8292
G1 X19.3150 Y-33.8446
G1 X19.3279 Y-33.8595
G1 X19.3872 Y-33.9249
G1 X19.4007 Y-33.9392
G1 X19.4149 Y-33.9527
G1 X19.4877 Y-34.0185
G1 X19.5107 Y-34.0369
G1 X19.5816 Y-34.0895
G1 X19.5977 Y-34.1008
G1 X19.6143 Y-34.1113
G1 X19.6900 Y-34.1567
G1 X19.7071 Y-34.1664
G1 X19.7247 Y-34.1752
G1 X19.8045 Y-34.2130
G1 X19.8225 Y-34.2210
G1 X19.8408 Y-34.2280
G1 X19.9239 Y-34.2578
G1 X19.9426 Y-34.2639
G1 X19.9615 Y-34.2692
G1 X20.0472 Y-34.2906
G1 X20.0663 Y-34.2949
G1 X20.0857 Y-34.2983
G1 X20.1730 Y-34.3113
G1 X20.1925 Y-34.3137
G1 X20.2121 Y-34.3151
G1 X20.3003 Y-34.3194
G1 X20.3199 Y-34.3199
G1 X20.3396 Y-34.3194
G1 X20.4376 Y-34.3145
G1 X20.4668 Y-34.3113
G1 X20.5542 Y-34.2983
G1 X20.5736 Y-34.2949
G1 X20.5927 Y-34.2906
G1 X20.6784 Y-34.2692
G1 X20.6973 Y-34.2639
G1 X20.7160 Y-34.2578
G1 X20.7991 Y-34.2280
G1 X20.8174 Y-34.2210
G1 X20.8354 Y-34.2130
G1 X20.9240 Y-34.1709
G1 X20.9498 Y-34.1567
G1 X21.0256 Y-34.1113
G1 X21.0422 Y-34.1008
G1 X21.0582 Y-34.0895
G1 X21.1370 Y-34.0310
G1 X21.1595 Y-34.0120
G1 X21.2322 Y-33.9460
G1 X21.2527 Y-33.9249
G1 X21.3053 Y-33.8669
G0 Z2.0000
G0 X27.5116 Y-36.3602
F800
G1 Z-0.0500 F800
F1000
G1 X29.4068 Y-36.3602
G1 X29.4381 Y-36.4022
G1 X29.4506 Y-36.4174
G1 X29.5190 Y-36.4931
G1 X29.5396 Y-36.5142
G1 X29.6151 Y-36.5828
G1 X29.6300 Y-36.5956
G1 X29.6454 Y-36.6077
G1 X29.7275 Y-36.6684
G1 X29.7522 Y-36.6844
G1 X29.8313 Y-36.7318
G1 X29.8483 Y-36.7415
G1 X29.8659 Y-36.7503
G1 X29.9493 Y-36.7898
G1 X29.9672 Y-36.7977
G1 X29.9855 Y-36.8048
G1 X30.0816 Y-36.8391
G1 X30.1099 Y-36.8473
G1 X30.1994 Y-36.8697
G1 X30.2185 Y-36.8740
G1 X30.2379 Y-36.8773
G1 X30.3291 Y-36.8909
G1 X30.3486 Y-36.8933
G1 X30.3682 Y-36.8947
G1 X30.4603 Y-36.8992
G1 X30.4799 Y-36.8997
G1 X30.4995 Y-36.8992
G1 X30.5917 Y-36.8947
G1 X30.6112 Y-36.8933
G1 X30.6307 Y-36.8909
G1 X30.7220 Y-36.8773
G1 X30.7413 Y-36.8740
G1 X30.7605 Y-36.8697
G1 X30.8594 Y-36.8448
G1 X30.8875 Y-36.8359
G1 X30.9743 Y-36.8048
G1 X30.9926 Y-36.7977
G1 X31.0106 Y-36.7898
G1 X31.0940 Y-36.7503
G1 X31.1115 Y-36.7415
G1 X31.1286 Y-36.7318
G1 X31.2077 Y-36.6844
G1 X31.2243 Y-36.6739
G1 X31.2403 Y-36.6626
G1 X31.3144 Y-36.6077
G1 X31.3299 Y-36.5956
G1 X31.3447 Y-36.5828
G1 X31.4131 Y-36.5208
G1 X31.4273 Y-36.5073
G1 X31.4408 Y-36.4931
G1 X31.5028 Y-36.4247
G1 X31.5156 Y-36.4099
G1 X31.5277 Y-36.3944
G1 X31.5826 Y-36.3203
G1 X31.5939 Y-36.3043
G1 X31.6044 Y-36.2877
G1 X31.6518 Y-36.2086
G1 X31.6615 Y-36.1915
G1 X31.6703 Y-36.1740
G1 X31.7098 Y-36.0906
G1 X31.7177 Y-36.0726
G1 X31.7248 Y-36.0543
G1 X31.7559 Y-35.9675
G1 X31.7620 Y-35.9488
G1 X31.7673 Y-35.9299
G1 X31.7897 Y-35.8405
G1 X31.7940 Y-35.8213
G1 X31.7973 Y-35.8020
G1 X31.8109 Y-35.7107
G1 X31.8133 Y-35.6912
G1 X31.8147 Y-35.6717
G1 X31.8192 Y-35.5795
G1 X31.8197 Y-35.5599
G1 X31.8192 Y-35.5403
G1 X31.8147 Y-35.4482
G1 X31.8133 Y-35.4286
G1 X31.8109 Y-35.4091
G1 X31.7973 Y-35.3179
G1 X31.7940 Y-35.2985
G1 X31.7897 Y-35.2794
G1 X31.7648 Y-35.1804
G1 X31.7559 Y-35.1524
G1 X31.7248 Y-35.0655
G1 X31.7177 Y-35.0472
G1 X31.7098 Y-35.0293
G1 X31.6703 Y-34.9459
G1 X31.6615 Y-34.9283
G1 X31.6518 Y-34.9113
G1 X31.6044 Y-34.8322
G1 X31.5939 Y-34.8156
G1 X31.5826 Y-34.7995
G1 X31.5277 Y-34.7254
G1 X31.5156 Y-34.7100
G1 X31.5028 Y-34.6951
G1 X31.4408 Y-34.6268
G1 X31.4273 Y-34.6125
G1 X31.4131 Y-34.5990
G1 X31.3447 Y-34.5371
G1 X31.3299 Y-34.5242
G1 X31.3144 Y-34.5122
G1 X31.2403 Y-34.4572
G1 X31.2243 Y-34.4459
G1 X31.2077 Y-34.4354
G1 X31.1286 Y-34.3880
G1 X31.1115 Y-34.3783
G1 X31.0940 Y-34.3695
G1 X31.0106 Y-34.3301
G1 X30.9926 Y-34.3221
G1 X30.9743 Y-34.3150
G1 X30.8875 Y-34.2840
G1 X30.8688 Y-34.2778
G1 X30.8499 Y-34.2726
G1 X30.7605 Y-34.2502
G1 X30.7413 Y-34.2459
G1 X30.7220 Y-34.2425
G1 X30.6307 Y-34.2290
G1 X30.6015 Y-34.2257
G1 X30.4897 Y-34.2202
G1 X30.4603 Y-34.2206
G1 X30.3682 Y-34.2251
G1 X30.3486 Y-34.2266
G1 X30.3291 Y-34.2290
G1 X30.2379 Y-34.2425
G1 X30.2185 Y-34.2459
G1 X30.1994 Y-34.2502
G1 X30.1099 Y-34.2726
G1 X30.0910 Y-34.2778
G1 X30.0724 Y-34.2840
G1 X29.9855 Y-34.3150
G1 X29.9582 Y-34.3260
G1 X29.8571 Y-34.3738
G1 X29.8313 Y-34.3880
G1 X29.7522 Y-34.4354
G1 X29.7356 Y-34.4459
G1 X29.7195 Y-34.4572
G1 X29.6376 Y-34.5181
G1 X29.6151 Y-34.5371
G1 X29.5468 Y-34.5990
G1 X29.5257 Y-34.6196
G1 X29.4506 Y-34.7024
G1 X29.4381 Y-34.7176
G1 X29.4067 Y-34.7598
G1 X27.5118 Y-34.7598
G1 X27.4985 Y-34.7453
G1 X27.4846 Y-34.7314
G1 X27.4146 Y-34.6680
G1 X27.3916 Y-34.6496
G1 X27.3236 Y-34.5993
G1 X27.2989 Y-34.5832
G1 X27.2348 Y-34.5448
G1 X27.2177 Y-34.5351
G1 X27.2002 Y-34.5263
G1 X27.1236 Y-34.4902
G1 X27.0963 Y-34.4793
G1 X27.0259 Y-34.4541
G1 X27.0073 Y-34.4480
G1 X26.9883 Y-34.4427
G1 X26.9158 Y-34.4245
G1 X26.8966 Y-34.4202
G1 X26.8773 Y-34.4169
G1 X26.8033 Y-34.4059
G1 X26.7838 Y-34.4035
G1 X26.7643 Y-34.4021
G1 X26.6896 Y-34.3984
G1 X26.6699 Y-34.3979
G1 X26.6503 Y-34.3984
G1 X26.5756 Y-34.4021
G1 X26.5560 Y-34.4035
G1 X26.5366 Y-34.4059
G1 X26.4626 Y-34.4169
G1 X26.4432 Y-34.4202
G1 X26.4241 Y-34.4245
G1 X26.3516 Y-34.4427
G1 X26.3326 Y-34.4480
G1 X26.3140 Y-34.4541
G1 X26.2436 Y-34.4793
G1 X26.2253 Y-34.4864
G1 X26.2073 Y-34.4943
G1 X26.1397 Y-34.5263
G1 X26.1222 Y-34.5351
G1 X26.1051 Y-34.5448
G1 X26.0410 Y-34.5832
G1 X26.0244 Y-34.5938
G1 X26.0083 Y-34.6051
G1 X25.9483 Y-34.6496
G1 X25.9328 Y-34.6617
G1 X25.9179 Y-34.6745
G1 X25.8625 Y-34.7247
G1 X25.8414 Y-34.7453
G1 X25.7845 Y-34.8079
G1 X25.7717 Y-34.8228
G1 X25.7596 Y-34.8382
G1 X25.7151 Y-34.8983
G1 X25.7038 Y-34.9143
G1 X25.6933 Y-34.9309
G1 X25.6548 Y-34.9951
G1 X25.6451 Y-35.0122
G1 X25.6363 Y-35.0297
G1 X25.6043 Y-35.0973
G1 X25.5964 Y-35.1152
G1 X25.5893 Y-35.1336
G1 X25.5641 Y-35.2040
G1 X25.5580 Y-35.2226
G1 X25.5527 Y-35.2415
G1 X25.5346 Y-35.3141
G1 X25.5303 Y-35.3332
G1 X25.5269 Y-35.3526
G1 X25.5159 Y-35.4265
G1 X25.5135 Y-35.4460
G1 X25.5121 Y-35.4656
G1 X25.5084 Y-35.5403
G1 X25.5079 Y-35.5599
G1 X25.5084 Y-35.5795
G1 X25.5121 Y-35.6542
G1 X25.5135 Y-35.6738
G1 X25.5159 Y-35.6933
G1 X25.5269 Y-35.7673
G1 X25.5303 Y-35.7866
G1 X25.5346 Y-35.8058
G1 X25.5527 Y-35.8783
G1 X25.5580 Y-35.8972
G1 X25.5641 Y-35.9159
G1 X25.5893 Y-35.9863
G1 X25.5964 Y-36.0046
G1 X25.6043 Y-36.0225
G1 X25.6363 Y-36.0901
G1 X25.6451 Y-36.1077
G1 X25.6548 Y-36.1248
G1 X25.6933 Y-36.1889
G1 X25.7038 Y-36.2055
G1 X25.7151 Y-36.2215
G1 X25.7596 Y-36.2816
G1 X25.7717 Y-36.2971
G1 X25.7845 Y-36.3120
G1 X25.8347 Y-36.3674
G1 X25.8553 Y-36.3884
G1 X25.9179 Y-36.4453
G1 X25.9328 Y-36.4582
G1 X25.9483 Y-36.4702
G1 X26.0083 Y-36.5148
G1 X26.0244 Y-36.5261
G1 X26.0410 Y-36.5366
G1 X26.1051 Y-36.5750
G1 X26.1222 Y-36.5847
G1 X26.1397 Y-36.5935
G1 X26.2073 Y-36.6255
G1 X26.2253 Y-36.6335
G1 X26.2436 Y-36.6405
G1 X26.3140 Y-36.6657
G1 X26.3326 Y-36.6719
G1 X26.3516 Y-36.6771
G1 X26.4241 Y-36.6953
G1 X26.4432 Y-36.6996
G1 X26.4626 Y-36.7029
G1 X26.5366 Y-36.7139
G1 X26.5560 Y-36.7163
G1 X26.5756 Y-36.7178
G1 X26.6503 Y-36.7214
G1 X26.6798 Y-36.7218
G1 X26.7643 Y-36.7178
G1 X26.7838 Y-36.7163
G1 X26.8033 Y-36.7139
G1 X26.8773 Y-36.7029
G1 X26.8966 Y-36.6996
G1 X26.9158 Y-36.6953
G1 X26.9883 Y-36.6771
G1 X27.0073 Y-36.6719
G1 X27.0259 Y-36.6657
G1 X27.0963 Y-36.6405
G1 X27.1236 Y-36.6296
G1 X27.2002 Y-36.5935
G1 X27.2177 Y-36.5847
G1 X27.2348 Y-36.5750
G1 X27.2989 Y-36.5366
G1 X27.3236 Y-36.5205
G1 X27.3916 Y-36.4702
G1 X27.4146 Y-36.4518
G1 X27.4846 Y-36.3884
G1 X27.4985 Y-36.3746
G1 X27.5116 Y-36.3602
G0 Z2.0000
G0 X27.5116 Y-28.7402
F800
G1 Z-0.0500 F800
F1000
G1 X29.4068 Y-28.7402
G1 X29.4381 Y-28.7822
G1 X29.4506 Y-28.7974
G1 X29.5190 Y-28.8731
G1 X29.5396 Y-28.8942
G1 X29.6151 Y-28.9628
G1 X29.6300 Y-28.9756
G1 X29.6454 Y-28.9877
G1 X29.7275 Y-29.0484
G1 X29.7522 Y-29.0644
G1 X29.8313 Y-29.1119
G1 X29.8483 Y-29.1215
G1 X29.8659 Y-29.1304
G1 X29.9493 Y-29.1698
G1 X29.9672 Y-29.1778
G1 X29.9855 Y-29.1848
G1 X30.0816 Y-29.2191
G1 X30.1099 Y-29.2273
G1 X30.1994 Y-29.2497
G1 X30.2185 Y-29.2540
G1 X30.2379 Y-29.2574
G1 X30.3291 Y-29.2709
G1 X30.3486 Y-29.2733
G1 X30.3682 Y-29.2747
G1 X30.4603 Y-29.2793
G1 X30.4799 Y-29.2797
G1 X30.4995 Y-29.2793
G1 X30.5917 Y-29.2747
G1 X30.6112 Y-29.2733
G1 X30.6307 Y-29.2709
G1 X30.7220 Y-29.2574
G1 X30.7413 Y-29.2540
G1 X30.7605 Y-29.2497
G1 X30.8594 Y-29.2248
G1 X30.8875 Y-29.2159
G1 X30.9743 Y-29.1848
G1 X30.9926 Y-29.1778
G1 X31.0106 Y-29.1698
G1 X31.0940 Y-29.1304
G1 X31.1115 Y-29.1215
G1 X31.1286 Y-29.1119
G1 X31.2077 Y-29.0644
G1 X31.2243 Y-29.0539
G1 X31.2403 Y-29.0426
G1 X31.3144 Y-28.9877
G1 X31.3299 Y-28.9756
G1 X31.3447 Y-28.9628
G1 X31.4131 Y-28.9009
G1 X31.4273 Y-28.8873
G1 X31.4408 Y-28.8731
G1 X31.5028 Y-28.8048
G1 X31.5156 Y-28.7899
G1 X31.5277 Y-28.7744
G1 X31.5826 Y-28.7003
G1 X31.5939 Y-28.6843
G1 X31.6044 Y-28.6677
G1 X31.6518 Y-28.5886
G1 X31.6615 Y-28.5715
G1 X31.6703 Y-28.5540
G1 X31.7098 Y-28.4706
G1 X31.7177 Y-28.4527
G1 X31.7248 Y-28.4343
G1 X31.7559 Y-28.3475
G1 X31.7620 Y-28.3289
G1 X31.7673 Y-28.3099
G1 X31.7897 Y-28.2205
G1 X31.7940 Y-28.2013
G1 X31.7973 Y-28.1820
G1 X31.8109 Y-28.0907
G1 X31.8133 Y-28.0713
G1 X31.8147 Y-28.0517
G1 X31.8192 Y-27.9596
G1 X31.8197 Y-27.9399
G1 X31.8192 Y-27.9203
G1 X31.8147 Y-27.8282
G1 X31.8133 Y-27.8086
G1 X31.8109 Y-27.7891
G1 X31.7973 Y-27.6979
G1 X31.7940 Y-27.6786
G1 X31.7897 Y-27.6594
G1 X31.7648 Y-27.5604
G1 X31.7559 Y-27.5324
G1 X31.7248 Y-27.4455
G1 X31.7177 Y-27.4272
G1 X31.7098 Y-27.4093
G1 X31.6703 Y-27.3259
G1 X31.6615 Y-27.3084
G1 X31.6518 Y-27.2913
G1 X31.6044 Y-27.2122
G1 X31.5939 Y-27.1956
G1 X31.5826 Y-27.1795
G1 X31.5277 Y-27.1055
G1 X31.5156 Y-27.0900
G1 X31.5028 Y-27.0751
G1 X31.4408 Y-27.0068
G1 X31.4273 Y-26.9926
G1 X31.4131 Y-26.9790
G1 X31.3447 Y-26.9171
G1 X31.3299 Y-26.9043
G1 X31.3144 Y-26.8922
G1 X31.2403 Y-26.8372
G1 X31.2243 Y-26.8259
G1 X31.2077 Y-26.8154
G1 X31.1286 Y-26.7680
G1 X31.1115 Y-26.7583
G1 X31.0940 Y-26.7495
G1 X31.0106 Y-26.7101
G1 X30.9926 Y-26.7021
G1 X30.9743 Y-26.6951
G1 X30.8875 Y-26.6640
G1 X30.8688 Y-26.6578
G1 X30.8499 Y-26.6526
G1 X30.7605 Y-26.6302
G1 X30.7413 Y-26.6259
G1 X30.7220 Y-26.6225
G1 X30.6307 Y-26.6090
G1 X30.6015 Y-26.6057
G1 X30.4897 Y-26.6003
G1 X30.4603 Y-26.6006
G1 X30.3682 Y-26.6051
G1 X30.3486 Y-26.6066
G1 X30.3291 Y-26.6090
G1 X30.2379 Y-26.6225
G1 X30.2185 Y-26.6259
G1 X30.1994 Y-26.6302
G1 X30.1099 Y-26.6526
G1 X30.0910 Y-26.6578
G1 X30.0724 Y-26.6640
G1 X29.9855 Y-26.6951
G1 X29.9582 Y-26.7060
G1 X29.8571 Y-26.7538
G1 X29.8313 Y-26.7680
G1 X29.7522 Y-26.8154
G1 X29.7356 Y-26.8259
G1 X29.7195 Y-26.8372
G1 X29.6376 Y-26.8981
G1 X29.6151 Y-26.9171
G1 X29.5468 Y-26.9790
G1 X29.5257 Y-26.9996
G1 X29.4506 Y-27.0825
G1 X29.4381 Y-27.0976
G1 X29.4067 Y-27.1398
G1 X27.5118 Y-27.1398
G1 X27.4985 Y-27.1253
G1 X27.4846 Y-27.1114
G1 X27.4146 Y-27.0480
G1 X27.3916 Y-27.0296
G1 X27.3236 Y-26.9793
G1 X27.2989 Y-26.9633
G1 X27.2348 Y-26.9248
G1 X27.2177 Y-26.9151
G1 X27.2002 Y-26.9063
G1 X27.1236 Y-26.8703
G1 X27.0963 Y-26.8593
G1 X27.0259 Y-26.8341
G1 X27.0073 Y-26.8280
G1 X26.9883 Y-26.8227
G1 X26.9158 Y-26.8046
G1 X26.8966 Y-26.8003
G1 X26.8773 Y-26.7969
G1 X26.8033 Y-26.7859
G1 X26.7838 Y-26.7835
G1 X26.7643 Y-26.7821
G1 X26.6896 Y-26.7784
G1 X26.6699 Y-26.7779
G1 X26.6503 Y-26.7784
G1 X26.5756 Y-26.7821
G1 X26.5560 Y-26.7835
G1 X26.5366 Y-26.7859
G1 X26.4626 Y-26.7969
G1 X26.4432 Y-26.8003
G1 X26.4241 Y-26.8046
G1 X26.3516 Y-26.8227
G1 X26.3326 Y-26.8280
G1 X26.3140 Y-26.8341
G1 X26.2436 Y-26.8593
G1 X26.2253 Y-26.8664
G1 X26.2073 Y-26.8743
G1 X26.1397 Y-26.9063
G1 X26.1222 Y-26.9151
G1 X26.1051 Y-26.9248
G1 X26.0410 Y-26.9633
G1 X26.0244 Y-26.9738
G1 X26.0083 Y-26.9851
G1 X25.9483 Y-27.0296
G1 X25.9328 Y-27.0417
G1 X25.9179 Y-27.0545
G1 X25.8625 Y-27.1047
G1 X25.8414 Y-27.1253
G1 X25.7845 Y-27.1879
G1 X25.7717 Y-27.2028
G1 X25.7596 Y-27.2183
G1 X25.7151 Y-27.2783
G1 X25.7038 Y-27.2944
G1 X25.6933 Y-27.3110
G1 X25.6548 Y-27.3751
G1 X25.6451 Y-27.3922
G1 X25.6363 Y-27.4097
G1 X25.6043 Y-27.4773
G1 X25.5964 Y-27.4953
G1 X25.5893 Y-27.5136
G1 X25.5641 Y-27.5840
G1 X25.5580 Y-27.6026
G1 X25.5527 Y-27.6216
G1 X25.5346 Y-27.6941
G1 X25.5303 Y-27.7132
G1 X25.5269 Y-27.7326
G1 X25.5159 Y-27.8066
G1 X25.5135 Y-27.8260
G1 X25.5121 Y-27.8456
G1 X25.5084 Y-27.9203
G1 X25.5079 Y-27.9399
G1 X25.5084 Y-27.9596
G1 X25.5121 Y-28.0343
G1 X25.5135 Y-28.0538
G1 X25.5159 Y-28.0733
G1 X25.5269 Y-28.1473
G1 X25.5303 Y-28.1666
G1 X25.5346 Y-28.1858
G1 X25.5527 Y-28.2583
G1 X25.5580 Y-28.2773
G1 X25.5641 Y-28.2959
G1 X25.5893 Y-28.3663
G1 X25.5964 Y-28.3846
G1 X25.6043 Y-28.4026
G1 X25.6363 Y-28.4702
G1 X25.6451 Y-28.4877
G1 X25.6548 Y-28.5048
G1 X25.6933 Y-28.5689
G1 X25.7038 Y-28.5855
G1 X25.7151 Y-28.6016
G1 X25.7596 Y-28.6616
G1 X25.7717 Y-28.6771
G1 X25.7845 Y-28.6920
G1 X25.8347 Y-28.7474
G1 X25.8553 Y-28.7685
G1 X25.9179 Y-28.8254
G1 X25.9328 Y-28.8382
G1 X25.9483 Y-28.8503
G1 X26.0083 Y-28.8948
G1 X26.0244 Y-28.9061
G1 X26.0410 Y-28.9166
G1 X26.1051 Y-28.9551
G1 X26.1222 Y-28.9647
G1 X26.1397 Y-28.9736
G1 X26.2073 Y-29.0055
G1 X26.2253 Y-29.0135
G1 X26.2436 Y-29.0206
G1 X26.3140 Y-29.0457
G1 X26.3326 Y-29.0519
G1 X26.3516 Y-29.0571
G1 X26.4241 Y-29.0753
G1 X26.4432 Y-29.0796
G1 X26.4626 Y-29.0830
G1 X26.5366 Y-29.0939
G1 X26.5560 Y-29.0963
G1 X26.5756 Y-29.0978
G1 X26.6503 Y-29.1015
G1 X26.6798 Y-29.1018
G1 X26.7643 Y-29.0978
G1 X26.7838 Y-29.0963
G1 X26.8033 Y-29.0939
G1 X26.8773 Y-29.0830
G1 X26.8966 Y-29.0796
G1 X26.9158 Y-29.0753
G1 X26.9883 Y-29.0571
G1 X27.0073 Y-29.0519
G1 X27.0259 Y-29.0457
G1 X27.0963 Y-29.0206
G1 X27.1236 Y-29.0096
G1 X27.2002 Y-28.9736
G1 X27.2177 Y-28.9647
G1 X27.2348 Y-28.9551
G1 X27.2989 Y-28.9166
G1 X27.3236 Y-28.9006
G1 X27.3916 Y-28.8503
G1 X27.4146 Y-28.8319
G1 X27.4846 Y-28.7685
G1 X27.4985 Y-28.7546
G1 X27.5116 Y-28.7402
G0 Z2.0000
G0 X28.9636 Y-23.6602
F800
G1 Z-0.0500 F800
F1000
G1 X35.2285 Y-23.6602
G1 X39.3152 Y-27.7469
G1 X39.3077 Y-27.7989
G1 X39.3057 Y-27.8184
G1 X39.3002 Y-27.9301
G1 X39.3006 Y-27.9596
G1 X39.3051 Y-28.0517
G1 X39.3077 Y-28.0810
G1 X39.3225 Y-28.1820
G1 X39.3259 Y-28.2013
G1 X39.3302 Y-28.2205
G1 X39.3526 Y-28.3099
G1 X39.3578 Y-28.3289
G1 X39.3640 Y-28.3475
G1 X39.3950 Y-28.4343
G1 X39.4021 Y-28.4527
G1 X39.4101 Y-28.4706
G1 X39.4495 Y-28.5540
G1 X39.4583 Y-28.5715
G1 X39.4680 Y-28.5886
G1 X39.5154 Y-28.6677
G1 X39.5259 Y-28.6843
G1 X39.5372 Y-28.7003
G1 X39.5981 Y-28.7822
G1 X39.6171 Y-28.8048
G1 X39.6790 Y-28.8731
G1 X39.6996 Y-28.8942
G1 X39.7824 Y-28.9693
G1 X39.7976 Y-28.9818
G1 X39.8398 Y-29.0132
G1 X39.8398 Y-34.4867
G1 X39.7976 Y-34.5181
G1 X39.7824 Y-34.5306
G1 X39.6996 Y-34.6057
G1 X39.6790 Y-34.6268
G1 X39.6106 Y-34.7024
G1 X39.5922 Y-34.7254
G1 X39.5372 Y-34.7995
G1 X39.5259 Y-34.8156
G1 X39.5154 Y-34.8322
G1 X39.4680 Y-34.9113
G1 X39.4538 Y-34.9371
G1 X39.4060 Y-35.0382
G1 X39.3950 Y-35.0655
G1 X39.3640 Y-35.1524
G1 X39.3578 Y-35.1710
G1 X39.3526 Y-35.1899
G1 X39.3302 Y-35.2794
G1 X39.3259 Y-35.2985
G1 X39.3225 Y-35.3179
G1 X39.3090 Y-35.4091
G1 X39.3066 Y-35.4286
G1 X39.3051 Y-35.4482
G1 X39.3006 Y-35.5403
G1 X39.3001 Y-35.5599
G1 X39.3006 Y-35.5795
G1 X39.3051 Y-35.6717
G1 X39.3066 Y-35.6912
G1 X39.3090 Y-35.7107
G1 X39.3225 Y-35.8020
G1 X39.3259 Y-35.8213
G1 X39.3302 Y-35.8405
G1 X39.3526 Y-35.9299
G1 X39.3578 Y-35.9488
G1 X39.3640 Y-35.9675
G1 X39.3950 Y-36.0543
G1 X39.4060 Y-36.0817
G1 X39.4538 Y-36.1828
G1 X39.4680 Y-36.2086
G1 X39.5154 Y-36.2877
G1 X39.5259 Y-36.3043
G1 X39.5372 Y-36.3203
G1 X39.5922 Y-36.3944
G1 X39.6106 Y-36.4174
G1 X39.6790 Y-36.4931
G1 X39.6996 Y-36.5142
G1 X39.7824 Y-36.5893
G1 X39.7976 Y-36.6017
G1 X39.8398 Y-36.6332
G1 X39.8398 Y-49.7266
G1 X39.7976 Y-49.7581
G1 X39.7824 Y-49.7705
G1 X39.6996 Y-49.8457
G1 X39.6790 Y-49.8667
G1 X39.6106 Y-49.9424
G1 X39.5922 Y-49.9654
G1 X39.5372 Y-50.0395
G1 X39.5259 Y-50.0555
G1 X39.5154 Y-50.0721
G1 X39.4680 Y-50.1512
G1 X39.4538 Y-50.1770
G1 X39.4060 Y-50.2781
G1 X39.3950 Y-50.3055
G1 X39.3640 Y-50.3923
G1 X39.3578 Y-50.4110
G1 X39.3526 Y-50.4299
G1 X39.3302 Y-50.5194
G1 X39.3259 Y-50.5385
G1 X39.3225 Y-50.5579
G1 X39.3090 Y-50.6491
G1 X39.3066 Y-50.6686
G1 X39.3051 Y-50.6881
G1 X39.3006 Y-50.7803
G1 X39.3001 Y-50.7999
G1 X39.3006 Y-50.8195
G1 X39.3051 Y-50.9116
G1 X39.3066 Y-50.9312
G1 X39.3090 Y-50.9507
G1 X39.3225 Y-51.0419
G1 X39.3259 Y-51.0613
G1 X39.3302 Y-51.0804
G1 X39.3526 Y-51.1699
G1 X39.3578 Y-51.1888
G1 X39.3640 Y-51.2075
G1 X39.3950 Y-51.2943
G1 X39.4060 Y-51.3216
G1 X39.4538 Y-51.4228
G1 X39.4680 Y-51.4485
G1 X39.5154 Y-51.5277
G1 X39.5259 Y-51.5442
G1 X39.5372 Y-51.5603
G1 X39.5922 Y-51.6344
G1 X39.6106 Y-51.6574
G1 X39.6790 Y-51.7331
G1 X39.6996 Y-51.7541
G1 X39.7824 Y-51.8292
G1 X39.7976 Y-51.8417
G1 X39.8398 Y-51.8731
G1 X39.8398 Y-54.8066
G1 X39.7976 Y-54.8381
G1 X39.7824 Y-54.8505
G1 X39.6996 Y-54.9257
G1 X39.6790 Y-54.9467
G1 X39.6106 Y-55.0224
G1 X39.5922 Y-55.0454
G1 X39.5372 Y-55.1195
G1 X39.5259 Y-55.1355
G1 X39.5154 Y-55.1521
G1 X39.4680 Y-55.2312
G1 X39.4538 Y-55.2570
G1 X39.4060 Y-55.3581
G1 X39.3950 Y-55.3855
G1 X39.3640 Y-55.4723
G1 X39.3578 Y-55.4910
G1 X39.3526 Y-55.5099
G1 X39.3302 Y-55.5994
G1 X39.3259 Y-55.6185
G1 X39.3225 Y-55.6379
G1 X39.3090 Y-55.7291
G1 X39.3066 Y-55.7486
G1 X39.3051 Y-55.7681
G1 X39.3006 Y-55.8603
G1 X39.3001 Y-55.8799
G1 X39.3006 Y-55.8995
G1 X39.3051 Y-55.9916
G1 X39.3066 Y-56.0112
G1 X39.3090 Y-56.0307
G1 X39.3225 Y-56.1219
G1 X39.3279 Y-56.1509
G1 X39.3526 Y-56.2499
G1 X39.3578 Y-56.2688
G1 X39.3640 Y-56.2875
G1 X39.3950 Y-56.3743
G1 X39.4021 Y-56.3926
G1 X39.4101 Y-56.4106
G1 X39.4495 Y-56.4939
G1 X39.4583 Y-56.5115
G1 X39.4680 Y-56.5285
G1 X39.5154 Y-56.6077
G1 X39.5259 Y-56.6242
G1 X39.5372 Y-56.6403
G1 X39.5922 Y-56.7144
G1 X39.6042 Y-56.7299
G1 X39.6171 Y-56.7447
G1 X39.6790 Y-56.8131
G1 X39.6925 Y-56.8273
G1 X39.7068 Y-56.8408
G1 X39.7751 Y-56.9027
G1 X39.7900 Y-56.9156
G1 X39.8054 Y-56.9276
G1 X39.8795 Y-56.9826
G1 X39.8956 Y-56.9939
G1 X39.9122 Y-57.0044
G1 X39.9913 Y-57.0518
G1 X40.0083 Y-57.0615
G1 X40.0259 Y-57.0703
G1 X40.1093 Y-57.1097
G1 X40.1272 Y-57.1177
G1 X40.1455 Y-57.1248
G1 X40.2324 Y-57.1558
G1 X40.2510 Y-57.1620
G1 X40.2699 Y-57.1672
G1 X40.3594 Y-57.1896
G1 X40.3785 Y-57.1939
G1 X40.3979 Y-57.1973
G1 X40.4891 Y-57.2108
G1 X40.5086 Y-57.2132
G1 X40.5282 Y-57.2147
G1 X40.6203 Y-57.2192
G1 X40.6399 Y-57.2197
G1 X40.6595 Y-57.2192
G1 X40.7517 Y-57.2147
G1 X40.7712 Y-57.2132
G1 X40.7907 Y-57.2108
G1 X40.8917 Y-57.1957
G1 X40.9205 Y-57.1896
G1 X41.0099 Y-57.1672
G1 X41.0288 Y-57.1620
G1 X41.0475 Y-57.1558
G1 X41.1343 Y-57.1248
G1 X41.1617 Y-57.1138
G1 X41.2540 Y-57.0703
G1 X41.2715 Y-57.0615
G1 X41.2886 Y-57.0518
G1 X41.3677 Y-57.0044
G1 X41.3843 Y-56.9939
G1 X41.4003 Y-56.9826
G1 X41.4744 Y-56.9276
G1 X41.4899 Y-56.9156
G1 X41.5047 Y-56.9027
G1 X41.5731 Y-56.8408
G1 X41.5873 Y-56.8273
G1 X41.6008 Y-56.8131
G1 X41.6628 Y-56.7447
G1 X41.6756 Y-56.7299
G1 X41.6877 Y-56.7144
G1 X41.7426 Y-56.6403
G1 X41.7539 Y-56.6242
G1 X41.7644 Y-56.6077
G1 X41.8118 Y-56.5285
G1 X41.8215 Y-56.5115
G1 X41.8303 Y-56.4939
G1 X41.8698 Y-56.4106
G1 X41.8777 Y-56.3926
G1 X41.8848 Y-56.3743
G1 X41.9159 Y-56.2875
G1 X41.9220 Y-56.2688
G1 X41.9273 Y-56.2499
G1 X41.9497 Y-56.1604
G1 X41.9540 Y-56.1413
G1 X41.9573 Y-56.1219
G1 X41.9709 Y-56.0307
G1 X41.9733 Y-56.0112
G1 X41.9747 Y-55.9916
G1 X41.9796 Y-55.8897
G1 X41.9792 Y-55.8603
G1 X41.9747 Y-55.7681
G1 X41.9733 Y-55.7486
G1 X41.9709 Y-55.7291
G1 X41.9573 Y-55.6379
G1 X41.9540 Y-55.6185
G1 X41.9497 Y-55.5994
G1 X41.9273 Y-55.5099
G1 X41.9220 Y-55.4910
G1 X41.9159 Y-55.4723
G1 X41.8848 Y-55.3855
G1 X41.8739 Y-55.3581
G1 X41.8260 Y-55.2570
G1 X41.8118 Y-55.2312
G1 X41.7644 Y-55.1521
G1 X41.7539 Y-55.1355
G1 X41.7426 Y-55.1195
G1 X41.6877 Y-55.0454
G1 X41.6693 Y-55.0224
G1 X41.6008 Y-54.9467
G1 X41.5803 Y-54.9257
G1 X41.4974 Y-54.8505
G1 X41.4822 Y-54.8381
G1 X41.4402 Y-54.8068
G1 X41.4402 Y-51.8730
G1 X41.4822 Y-51.8417
G1 X41.4974 Y-51.8292
G1 X41.5803 Y-51.7541
G1 X41.6008 Y-51.7331
G1 X41.6693 Y-51.6574
G1 X41.6877 Y-51.6344
G1 X41.7426 Y-51.5603
G1 X41.7539 Y-51.5442
G1 X41.7644 Y-51.5277
G1 X41.8118 Y-51.4485
G1 X41.8260 Y-51.4228
G1 X41.8698 Y-51.3306
G1 X41.8777 Y-51.3126
G1 X41.8848 Y-51.2943
G1 X41.9159 Y-51.2075
G1 X41.9220 Y-51.1888
G1 X41.9273 Y-51.1699
G1 X41.9497 Y-51.0804
G1 X41.9540 Y-51.0613
G1 X41.9573 Y-51.0419
G1 X41.9709 Y-50.9507
G1 X41.9741 Y-50.9214
G1 X41.9796 Y-50.8097
G1 X41.9792 Y-50.7803
G1 X41.9747 Y-50.6881
G1 X41.9733 Y-50.6686
G1 X41.9709 Y-50.6491
G1 X41.9573 Y-50.5579
G1 X41.9540 Y-50.5385
G1 X41.9497 Y-50.5194
G1 X41.9273 Y-50.4299
G1 X41.9220 Y-50.4110
G1 X41.9159 Y-50.3923
G1 X41.8848 Y-50.3055
G1 X41.8739 Y-50.2781
G1 X41.8260 Y-50.1770
G1 X41.8118 Y-50.1512
G1 X41.7644 Y-50.0721
G1 X41.7539 Y-50.0555
G1 X41.7426 Y-50.0395
G1 X41.6877 Y-49.9654
G1 X41.6693 Y-49.9424
G1 X41.6008 Y-49.8667
G1 X41.5803 Y-49.8457
G1 X41.4974 Y-49.7705
G1 X41.4822 Y-49.7581
G1 X41.4402 Y-49.7268
G1 X41.4402 Y-36.6330
G1 X41.4822 Y-36.6017
G1 X41.4974 Y-36.5893
G1 X41.5803 Y-36.5142
G1 X41.6008 Y-36.4931
G1 X41.6693 Y-36.4174
G1 X41.6877 Y-36.3944
G1 X41.7426 Y-36.3203
G1 X41.7539 Y-36.3043
G1 X41.7644 Y-36.2877
G1 X41.8118 Y-36.2086
G1 X41.8260 Y-36.1828
G1 X41.8739 Y-36.0817
G1 X41.8848 Y-36.0543
G1 X41.9159 Y-35.9675
G1 X41.9220 Y-35.9488
G1 X41.9273 Y-35.9299
G1 X41.9497 Y-35.8405
G1 X41.9540 Y-35.8213
G1 X41.9573 Y-35.8020
G1 X41.9709 Y-35.7107
G1 X41.9733 Y-35.6912
G1 X41.9747 Y-35.6717
G1 X41.9792 Y-35.5795
G1 X41.9797 Y-35.5599
G1 X41.9792 Y-35.5403
G1 X41.9747 Y-35.4482
G1 X41.9733 Y-35.4286
G1 X41.9709 Y-35.4091
G1 X41.9573 Y-35.3179
G1 X41.9540 Y-35.2985
G1 X41.9497 Y-35.2794
G1 X41.9273 Y-35.1899
G1 X41.9220 Y-35.1710
G1 X41.9159 Y-35.1524
G1 X41.8848 Y-35.0655
G1 X41.8739 Y-35.0382
G1 X41.8260 Y-34.9371
G1 X41.8118 Y-34.9113
G1 X41.7644 Y-34.8322
G1 X41.7539 Y-34.8156
G1 X41.7426 Y-34.7995
G1 X41.6877 Y-34.7254
G1 X41.6693 Y-34.7024
G1 X41.6008 Y-34.6268
G1 X41.5803 Y-34.6057
G1 X41.4974 Y-34.5306
G1 X41.4822 Y-34.5181
G1 X41.4402 Y-34.4868
G1 X41.4402 Y-29.0131
G1 X41.4822 Y-28.9818
G1 X41.4974 Y-28.9693
G1 X41.5731 Y-28.9009
G1 X41.5942 Y-28.8803
G1 X41.6628 Y-28.8048
G1 X41.6756 Y-28.7899
G1 X41.6877 Y-28.7744
G1 X41.7484 Y-28.6924
G1 X41.7644 Y-28.6677
G1 X41.8118 Y-28.5886
G1 X41.8215 Y-28.5715
G1 X41.8303 Y-28.5540
G1 X41.8698 Y-28.4706
G1 X41.8777 Y-28.4527
G1 X41.8848 Y-28.4343
G1 X41.9159 Y-28.3475
G1 X41.9248 Y-28.3194
G1 X41.9497 Y-28.2205
G1 X41.9540 Y-28.2013
G1 X41.9573 Y-28.1820
G1 X41.9709 Y-28.0907
G1 X41.9741 Y-28.0615
G1 X41.9792 Y-27.9596
G1 X41.9797 Y-27.9399
G1 X41.9792 Y-27.9203
G1 X41.9747 Y-27.8282
G1 X41.9733 Y-27.8086
G1 X41.9709 Y-27.7891
G1 X41.9573 Y-27.6979
G1 X41.9540 Y-27.6786
G1 X41.9497 Y-27.6594
G1 X41.9273 Y-27.5699
G1 X41.9220 Y-27.5510
G1 X41.9159 Y-27.5324
G1 X41.8848 Y-27.4455
G1 X41.8739 Y-27.4182
G1 X41.8260 Y-27.3171
G1 X41.8118 Y-27.2913
G1 X41.7644 Y-27.2122
G1 X41.7539 Y-27.1956
G1 X41.7426 Y-27.1795
G1 X41.6817 Y-27.0976
G1 X41.6628 Y-27.0751
G1 X41.6008 Y-27.0068
G1 X41.5873 Y-26.9926
G1 X41.5731 Y-26.9790
G1 X41.5047 Y-26.9171
G1 X41.4899 Y-26.9043
G1 X41.4744 Y-26.8922
G1 X41.4003 Y-26.8372
G1 X41.3843 Y-26.8259
G1 X41.3677 Y-26.8154
G1 X41.2801 Y-26.7631
G1 X41.2540 Y-26.7495
G1 X41.1706 Y-26.7101
G1 X41.1526 Y-26.7021
G1 X41.1343 Y-26.6951
G1 X41.0475 Y-26.6640
G1 X41.0288 Y-26.6578
G1 X41.0099 Y-26.6526
G1 X40.9205 Y-26.6302
G1 X40.8917 Y-26.6241
G1 X40.7907 Y-26.6090
G1 X40.7712 Y-26.6066
G1 X40.7517 Y-26.6051
G1 X40.6497 Y-26.6003
G1 X40.6203 Y-26.6006
G1 X40.5184 Y-26.6057
G1 X40.4988 Y-26.6077
G1 X40.4469 Y-26.6153
G1 X36.1188 Y-22.2873
G1 X36.0752 Y-22.2478
G1 X36.0522 Y-22.2294
G1 X36.0206 Y-22.2060
G1 X36.0046 Y-22.1947
G1 X35.9880 Y-22.1842
G1 X35.9543 Y-22.1640
G1 X35.9285 Y-22.1498
G1 X35.8752 Y-22.1246
G1 X35.8479 Y-22.1136
G1 X35.8109 Y-22.1004
G1 X35.7923 Y-22.0943
G1 X35.7734 Y-22.0890
G1 X35.7257 Y-22.0772
G1 X35.6968 Y-22.0718
G1 X35.6579 Y-22.0661
G1 X35.6384 Y-22.0637
G1 X35.6189 Y-22.0622
G1 X35.5796 Y-22.0603
G1 X35.5600 Y-22.0598
G1 X28.9637 Y-22.0598
G1 X28.9510 Y-22.0429
G1 X28.9385 Y-22.0277
G1 X28.8660 Y-21.9477
G1 X28.8450 Y-21.9272
G1 X28.7795 Y-21.8679
G1 X28.7647 Y-21.8550
G1 X28.7492 Y-21.8429
G1 X28.6782 Y-21.7903
G1 X28.6622 Y-21.7790
G1 X28.6456 Y-21.7685
G1 X28.5698 Y-21.7231
G1 X28.5440 Y-21.7089
G1 X28.4465 Y-21.6628
G1 X28.4191 Y-21.6518
G1 X28.3360 Y-21.6221
G1 X28.3173 Y-21.6159
G1 X28.2984 Y-21.6107
G1 X28.2127 Y-21.5892
G1 X28.1936 Y-21.5849
G1 X28.1742 Y-21.5816
G1 X28.0868 Y-21.5686
G1 X28.0674 Y-21.5662
G1 X28.0478 Y-21.5648
G1 X27.9596 Y-21.5604
G1 X27.9399 Y-21.5599
G1 X27.9203 Y-21.5604
G1 X27.8321 Y-21.5648
G1 X27.8125 Y-21.5662
G1 X27.7930 Y-21.5686
G1 X27.7057 Y-21.5816
G1 X27.6863 Y-21.5849
G1 X27.6672 Y-21.5892
G1 X27.5815 Y-21.6107
G1 X27.5626 Y-21.6159
G1 X27.5439 Y-21.6221
G1 X27.4608 Y-21.6518
G1 X27.4334 Y-21.6628
G1 X27.3447 Y-21.7046
G1 X27.3271 Y-21.7134
G1 X27.3100 Y-21.7231
G1 X27.2343 Y-21.7685
G1 X27.2177 Y-21.7790
G1 X27.2016 Y-21.7903
G1 X27.1307 Y-21.8429
G1 X27.1152 Y-21.8550
G1 X27.1004 Y-21.8679
G1 X27.0349 Y-21.9272
G1 X27.0207 Y-21.9407
G1 X27.0072 Y-21.9549
G1 X26.9479 Y-22.0204
G1 X26.9289 Y-22.0429
G1 X26.8703 Y-22.1216
G1 X26.8590 Y-22.1377
G1 X26.8485 Y-22.1543
G1 X26.8031 Y-22.2300
G1 X26.7934 Y-22.2471
G1 X26.7846 Y-22.2647
G1 X26.7469 Y-22.3445
G1 X26.7389 Y-22.3625
G1 X26.7318 Y-22.3808
G1 X26.7021 Y-22.4639
G1 X26.6959 Y-22.4826
G1 X26.6907 Y-22.5015
G1 X26.6692 Y-22.5872
G1 X26.6649 Y-22.6063
G1 X26.6616 Y-22.6257
G1 X26.6486 Y-22.7130
G1 X26.6462 Y-22.7325
G1 X26.6448 Y-22.7521
G1 X26.6404 Y-22.8403
G1 X26.6399 Y-22.8599
G1 X26.6404 Y-22.8796
G1 X26.6448 Y-22.9678
G1 X26.6462 Y-22.9874
G1 X26.6486 Y-23.0068
G1 X26.6616 Y-23.0942
G1 X26.6649 Y-23.1136
G1 X26.6692 Y-23.1327
G1 X26.6907 Y-23.2184
G1 X26.6959 Y-23.2373
G1 X26.7021 Y-23.2560
G1 X26.7318 Y-23.3391
G1 X26.7389 Y-23.3574
G1 X26.7469 Y-23.3754
G1 X26.7846 Y-23.4552
G1 X26.7934 Y-23.4728
G1 X26.8031 Y-23.4898
G1 X26.8485 Y-23.5656
G1 X26.8590 Y-23.5822
G1 X26.8703 Y-23.5982
G1 X26.9229 Y-23.6692
G1 X26.9350 Y-23.6847
G1 X26.9479 Y-23.6995
G1 X27.0072 Y-23.7650
G1 X27.0207 Y-23.7792
G1 X27.0349 Y-23.7927
G1 X27.1004 Y-23.8520
G1 X27.1229 Y-23.8710
G1 X27.2016 Y-23.9295
G1 X27.2177 Y-23.9409
G1 X27.2343 Y-23.9514
G1 X27.3100 Y-23.9968
G1 X27.3271 Y-24.0064
G1 X27.3447 Y-24.0153
G1 X27.4245 Y-24.0530
G1 X27.4425 Y-24.0610
G1 X27.4608 Y-24.0680
G1 X27.5439 Y-24.0978
G1 X27.5626 Y-24.1040
G1 X27.5815 Y-24.1092
G1 X27.6672 Y-24.1307
G1 X27.6863 Y-24.1350
G1 X27.7057 Y-24.1383
G1 X27.7930 Y-24.1513
G1 X27.8125 Y-24.1537
G1 X27.8321 Y-24.1551
G1 X27.9203 Y-24.1595
G1 X27.9399 Y-24.1599
G1 X27.9596 Y-24.1595
G1 X28.0478 Y-24.1551
G1 X28.0771 Y-24.1526
G1 X28.1742 Y-24.1383
G1 X28.1936 Y-24.1350
G1 X28.2127 Y-24.1307
G1 X28.2984 Y-24.1092
G1 X28.3173 Y-24.1040
G1 X28.3360 Y-24.0978
G1 X28.4191 Y-24.0680
G1 X28.4374 Y-24.0610
G1 X28.4554 Y-24.0530
G1 X28.5352 Y-24.0153
G1 X28.5614 Y-24.0017
G1 X28.6456 Y-23.9514
G1 X28.6622 Y-23.9409
G1 X28.6782 Y-23.9295
G1 X28.7492 Y-23.8769
G1 X28.7722 Y-23.8585
G1 X28.8450 Y-23.7927
G1 X28.8660 Y-23.7722
G1 X28.9385 Y-23.6922
G1 X28.9510 Y-23.6770
G1 X28.9636 Y-23.6602
G0 Z2.0000
G0 X16.9797 Y-49.6001
F800
G1 Z-0.0500 F800
F1000
G1 X16.8919 Y-49.6043
G1 X16.8723 Y-49.6058
G1 X16.8528 Y-49.6082
G1 X16.7752 Y-49.6197
G1 X16.7558 Y-49.6231
G1 X16.7367 Y-49.6274
G1 X16.6605 Y-49.6464
G1 X16.6416 Y-49.6517
G1 X16.6229 Y-49.6578
G1 X16.5490 Y-49.6843
G1 X16.5307 Y-49.6913
G1 X16.5128 Y-49.6993
G1 X16.4418 Y-49.7329
G1 X16.4243 Y-49.7417
G1 X16.4072 Y-49.7514
G1 X16.3398 Y-49.7917
G1 X16.3232 Y-49.8022
G1 X16.3072 Y-49.8135
G1 X16.2441 Y-49.8603
G1 X16.2287 Y-49.8724
G1 X16.2138 Y-49.8852
G1 X16.1556 Y-49.9379
G1 X16.1414 Y-49.9515
G1 X16.1279 Y-49.9657
G1 X16.0751 Y-50.0239
G1 X16.0623 Y-50.0387
G1 X16.0502 Y-50.0542
G1 X16.0035 Y-50.1173
G1 X15.9922 Y-50.1333
G1 X15.9817 Y-50.1499
G1 X15.9413 Y-50.2172
G1 X15.9316 Y-50.2343
G1 X15.9228 Y-50.2519
G1 X15.8892 Y-50.3228
G1 X15.8813 Y-50.3408
G1 X15.8742 Y-50.3591
G1 X15.8478 Y-50.4330
G1 X15.8416 Y-50.4517
G1 X15.8364 Y-50.4706
G1 X15.8173 Y-50.5467
G1 X15.8130 Y-50.5659
G1 X15.8096 Y-50.5852
G1 X15.7981 Y-50.6629
G1 X15.7957 Y-50.6824
G1 X15.7943 Y-50.7020
G1 X15.7904 Y-50.7804
G1 X15.7899 Y-50.8000
G1 X15.7904 Y-50.8196
G1 X15.7943 Y-50.8980
G1 X15.7957 Y-50.9176
G1 X15.7981 Y-50.9371
G1 X15.8096 Y-51.0148
G1 X15.8130 Y-51.0341
G1 X15.8173 Y-51.0533
G1 X15.8364 Y-51.1294
G1 X15.8416 Y-51.1483
G1 X15.8478 Y-51.1670
G1 X15.8742 Y-51.2409
G1 X15.8813 Y-51.2592
G1 X15.8892 Y-51.2772
G1 X15.9228 Y-51.3481
G1 X15.9316 Y-51.3657
G1 X15.9413 Y-51.3828
G1 X15.9817 Y-51.4501
G1 X15.9922 Y-51.4667
G1 X16.0035 Y-51.4827
G1 X16.0502 Y-51.5458
G1 X16.0623 Y-51.5613
G1 X16.0751 Y-51.5761
G1 X16.1279 Y-51.6343
G1 X16.1414 Y-51.6485
G1 X16.1556 Y-51.6621
G1 X16.2138 Y-51.7148
G1 X16.2287 Y-51.7276
G1 X16.2441 Y-51.7397
G1 X16.3072 Y-51.7865
G1 X16.3232 Y-51.7978
G1 X16.3398 Y-51.8083
G1 X16.4072 Y-51.8486
G1 X16.4243 Y-51.8583
G1 X16.4418 Y-51.8671
G1 X16.5128 Y-51.9007
G1 X16.5307 Y-51.9087
G1 X16.5490 Y-51.9157
G1 X16.6229 Y-51.9422
G1 X16.6416 Y-51.9483
G1 X16.6605 Y-51.9536
G1 X16.7367 Y-51.9726
G1 X16.7558 Y-51.9769
G1 X16.7752 Y-51.9803
G1 X16.8528 Y-51.9918
G1 X16.8723 Y-51.9942
G1 X16.8919 Y-51.9957
G1 X16.9703 Y-51.9995
G1 X16.9899 Y-52.0000
G1 X17.0096 Y-51.9995
G1 X17.0880 Y-51.9957
G1 X17.1076 Y-51.9942
G1 X17.1270 Y-51.9918
G1 X17.2047 Y-51.9803
G1 X17.2240 Y-51.9769
G1 X17.2432 Y-51.9726
G1 X17.3193 Y-51.9536
G1 X17.3383 Y-51.9483
G1 X17.3569 Y-51.9422
G1 X17.4308 Y-51.9157
G1 X17.4492 Y-51.9087
G1 X17.4671 Y-51.9007
G1 X17.5381 Y-51.8671
G1 X17.5556 Y-51.8583
G1 X17.5727 Y-51.8486
G1 X17.6400 Y-51.8083
G1 X17.6566 Y-51.7978
G1 X17.6727 Y-51.7865
G1 X17.7357 Y-51.7397
G1 X17.7512 Y-51.7276
G1 X17.7661 Y-51.7148
G1 X17.8242 Y-51.6621
G1 X17.8385 Y-51.6485
G1 X17.8520 Y-51.6343
G1 X17.9047 Y-51.5761
G1 X17.9175 Y-51.5613
G1 X17.9296 Y-51.5458
G1 X17.9764 Y-51.4827
G1 X17.9877 Y-51.4667
G1 X17.9982 Y-51.4501
G1 X18.0386 Y-51.3828
G1 X18.0482 Y-51.3657
G1 X18.0571 Y-51.3481
G1 X18.0906 Y-51.2772
G1 X18.0986 Y-51.2592
G1 X18.1057 Y-51.2409
G1 X18.1321 Y-51.1670
G1 X18.1383 Y-51.1483
G1 X18.1435 Y-51.1294
G1 X18.1648 Y-51.0437
G1 X18.1702 Y-51.0148
G1 X18.1817 Y-50.9371
G1 X18.1850 Y-50.9078
G1 X18.1898 Y-50.8098
G1 X18.1898 Y-50.7902
G1 X18.1882 Y-50.7559
G1 X18.3355 Y-50.6138
G1 X18.3651 Y-50.5836
G1 X18.3787 Y-50.5687
G1 X18.3969 Y-50.5475
G1 X18.4225 Y-50.5149
G1 X18.4393 Y-50.4914
G1 X18.4614 Y-50.4573
G1 X18.4814 Y-50.4230
G1 X18.4996 Y-50.3877
G1 X18.5124 Y-50.3599
G1 X18.5203 Y-50.3415
G1 X18.5307 Y-50.3147
G1 X18.5373 Y-50.2960
G1 X18.5470 Y-50.2657
G1 X18.5544 Y-50.2390
G1 X18.5592 Y-50.2197
G1 X18.5641 Y-50.1975
G1 X18.5705 Y-50.1613
G1 X18.5750 Y-50.1281
G1 X18.5770 Y-50.1081
G1 X18.5789 Y-50.0824
G1 X18.5800 Y-50.0479
G1 X18.5802 Y-49.0674
G1 X31.4187 Y-49.0604
G1 X33.4898 Y-51.1315
G1 X33.4898 Y-53.0085
G1 X31.4935 Y-55.0048
G1 X31.4408 Y-54.9467
G1 X31.4273 Y-54.9325
G1 X31.4131 Y-54.9190
G1 X31.3447 Y-54.8570
G1 X31.3222 Y-54.8381
G1 X31.2403 Y-54.7772
G1 X31.2243 Y-54.7659
G1 X31.2077 Y-54.7554
G1 X31.1286 Y-54.7080
G1 X31.1115 Y-54.6983
G1 X31.0940 Y-54.6895
G1 X31.0017 Y-54.6459
G1 X30.9743 Y-54.6350
G1 X30.8875 Y-54.6039
G1 X30.8688 Y-54.5978
G1 X30.8499 Y-54.5925
G1 X30.7605 Y-54.5701
G1 X30.7413 Y-54.5658
G1 X30.7220 Y-54.5625
G1 X30.6307 Y-54.5489
G1 X30.6112 Y-54.5465
G1 X30.5917 Y-54.5451
G1 X30.4995 Y-54.5406
G1 X30.4701 Y-54.5402
G1 X30.3682 Y-54.5451
G1 X30.3486 Y-54.5465
G1 X30.3291 Y-54.5489
G1 X30.2379 Y-54.5625
G1 X30.2185 Y-54.5658
G1 X30.1994 Y-54.5701
G1 X30.1004 Y-54.5950
G1 X30.0724 Y-54.6039
G1 X29.9855 Y-54.6350
G1 X29.9672 Y-54.6421
G1 X29.9493 Y-54.6500
G1 X29.8659 Y-54.6895
G1 X29.8483 Y-54.6983
G1 X29.8313 Y-54.7080
G1 X29.7522 Y-54.7554
G1 X29.7356 Y-54.7659
G1 X29.7195 Y-54.7772
G1 X29.6454 Y-54.8321
G1 X29.6300 Y-54.8442
G1 X29.6151 Y-54.8570
G1 X29.5468 Y-54.9190
G1 X29.5325 Y-54.9325
G1 X29.5190 Y-54.9467
G1 X29.4571 Y-55.0151
G1 X29.4381 Y-55.0376
G1 X29.3715 Y-55.1274
G1 X29.3554 Y-55.1521
G1 X29.3080 Y-55.2312
G1 X29.2983 Y-55.2483
G1 X29.2895 Y-55.2658
G1 X29.2501 Y-55.3492
G1 X29.2421 Y-55.3672
G1 X29.2350 Y-55.3855
G1 X29.2040 Y-55.4723
G1 X29.1978 Y-55.4910
G1 X29.1926 Y-55.5099
G1 X29.1702 Y-55.5994
G1 X29.1659 Y-55.6185
G1 X29.1625 Y-55.6379
G1 X29.1490 Y-55.7291
G1 X29.1466 Y-55.7486
G1 X29.1451 Y-55.7681
G1 X29.1406 Y-55.8603
G1 X29.1401 Y-55.8799
G1 X29.1406 Y-55.8995
G1 X29.1451 Y-55.9916
G1 X29.1466 Y-56.0112
G1 X29.1490 Y-56.0307
G1 X29.1625 Y-56.1219
G1 X29.1659 Y-56.1413
G1 X29.1702 Y-56.1604
G1 X29.1926 Y-56.2499
G1 X29.1978 Y-56.2688
G1 X29.2040 Y-56.2875
G1 X29.2350 Y-56.3743
G1 X29.2421 Y-56.3926
G1 X29.2501 Y-56.4106
G1 X29.2895 Y-56.4939
G1 X29.2983 Y-56.5115
G1 X29.3080 Y-56.5285
G1 X29.3554 Y-56.6077
G1 X29.3659 Y-56.6242
G1 X29.3772 Y-56.6403
G1 X29.4322 Y-56.7144
G1 X29.4442 Y-56.7299
G1 X29.4571 Y-56.7447
G1 X29.5190 Y-56.8131
G1 X29.5325 Y-56.8273
G1 X29.5468 Y-56.8408
G1 X29.6151 Y-56.9027
G1 X29.6300 Y-56.9156
G1 X29.6454 Y-56.9276
G1 X29.7195 Y-56.9826
G1 X29.7356 Y-56.9939
G1 X29.7522 Y-57.0044
G1 X29.8313 Y-57.0518
G1 X29.8483 Y-57.0615
G1 X29.8659 Y-57.0703
G1 X29.9493 Y-57.1097
G1 X29.9672 Y-57.1177
G1 X29.9855 Y-57.1248
G1 X30.0724 Y-57.1558
G1 X30.1004 Y-57.1647
G1 X30.2089 Y-57.1919
G1 X30.2379 Y-57.1973
G1 X30.3291 Y-57.2108
G1 X30.3486 Y-57.2132
G1 X30.3682 Y-57.2147
G1 X30.4603 Y-57.2192
G1 X30.4799 Y-57.2197
G1 X30.4995 Y-57.2192
G1 X30.5917 Y-57.2147
G1 X30.6112 Y-57.2132
G1 X30.6307 Y-57.2108
G1 X30.7220 Y-57.1973
G1 X30.7413 Y-57.1939
G1 X30.7605 Y-57.1896
G1 X30.8499 Y-57.1672
G1 X30.8782 Y-57.1590
G1 X30.9743 Y-57.1248
G1 X30.9926 Y-57.1177
G1 X31.0106 Y-57.1097
G1 X31.0940 Y-57.0703
G1 X31.1115 Y-57.0615
G1 X31.1286 Y-57.0518
G1 X31.2077 Y-57.0044
G1 X31.2324 Y-56.9883
G1 X31.3144 Y-56.9276
G1 X31.3299 Y-56.9156
G1 X31.3447 Y-56.9027
G1 X31.4203 Y-56.8341
G1 X31.4408 Y-56.8131
G1 X31.5093 Y-56.7374
G1 X31.5217 Y-56.7222
G1 X31.5530 Y-56.6802
G1 X31.7500 Y-56.6802
G1 X31.7696 Y-56.6797
G1 X31.8089 Y-56.6778
G1 X31.8382 Y-56.6753
G1 X31.8868 Y-56.6682
G1 X31.9061 Y-56.6648
G1 X31.9253 Y-56.6605
G1 X31.9729 Y-56.6485
G1 X32.0009 Y-56.6396
G1 X32.0379 Y-56.6264
G1 X32.0562 Y-56.6193
G1 X32.0742 Y-56.6113
G1 X32.1097 Y-56.5945
G1 X32.1358 Y-56.5810
G1 X32.1863 Y-56.5507
G1 X32.2027 Y-56.5398
G1 X32.2422 Y-56.5106
G1 X32.2652 Y-56.4922
G1 X32.3016 Y-56.4594
G1 X32.3158 Y-56.4458
G1 X34.8627 Y-53.8988
G1 X34.8957 Y-53.8625
G1 X34.9086 Y-53.8476
G1 X34.9206 Y-53.8322
G1 X34.9440 Y-53.8006
G1 X34.9607 Y-53.7763
G1 X34.9860 Y-53.7343
G1 X34.9957 Y-53.7172
G1 X35.0045 Y-53.6997
G1 X35.0254 Y-53.6552
G1 X35.0364 Y-53.6279
G1 X35.0496 Y-53.5909
G1 X35.0557 Y-53.5723
G1 X35.0610 Y-53.5534
G1 X35.0728 Y-53.5057
G1 X35.0782 Y-53.4768
G1 X35.0839 Y-53.4379
G1 X35.0863 Y-53.4184
G1 X35.0878 Y-53.3989
G1 X35.0897 Y-53.3596
G1 X35.0902 Y-53.3400
G1 X35.0901 Y-50.7902
G1 X35.0878 Y-50.7411
G1 X35.0853 Y-50.7118
G1 X35.0766 Y-50.6535
G1 X35.0705 Y-50.6247
G1 X35.0610 Y-50.5866
G1 X35.0557 Y-50.5677
G1 X35.0496 Y-50.5491
G1 X35.0364 Y-50.5121
G1 X35.0254 Y-50.4848
G1 X35.0002 Y-50.4315
G1 X34.9910 Y-50.4142
G1 X34.9658 Y-50.3720
G1 X34.9553 Y-50.3554
G1 X34.9440 Y-50.3394
G1 X34.9206 Y-50.3078
G1 X34.9086 Y-50.2924
G1 X34.8957 Y-50.2775
G1 X34.8694 Y-50.2484
G1 X34.8558 Y-50.2342
G1 X32.3158 Y-47.6942
G1 X32.3016 Y-47.6806
G1 X32.2725 Y-47.6542
G1 X32.2576 Y-47.6414
G1 X32.2421 Y-47.6293
G1 X32.2105 Y-47.6059
G1 X32.1862 Y-47.5892
G1 X32.1442 Y-47.5639
G1 X32.1183 Y-47.5497
G1 X32.0651 Y-47.5245
G1 X32.0377 Y-47.5136
G1 X32.0007 Y-47.5003
G1 X31.9820 Y-47.4942
G1 X31.9631 Y-47.4889
G1 X31.9250 Y-47.4794
G1 X31.9058 Y-47.4751
G1 X31.8864 Y-47.4718
G1 X31.8476 Y-47.4660
G1 X31.8281 Y-47.4636
G1 X31.8085 Y-47.4622
G1 X31.7692 Y-47.4603
G1 X31.7496 Y-47.4598
G1 X18.5802 Y-47.4670
G1 X18.5802 Y-44.3401
G1 X18.5909 Y-44.3389
G1 X18.6104 Y-44.3360
G1 X18.6296 Y-44.3322
G1 X18.6487 Y-44.3274
G1 X18.6674 Y-44.3217
G1 X18.6859 Y-44.3151
G1 X18.7041 Y-44.3076
G1 X18.7218 Y-44.2992
G1 X18.7391 Y-44.2900
G1 X18.7560 Y-44.2799
G1 X18.7802 Y-44.2632
G1 X18.7957 Y-44.2511
G1 X18.8106 Y-44.2383
G1 X18.8248 Y-44.2248
G1 X18.8384 Y-44.2105
G1 X18.8512 Y-44.1957
G1 X18.8633 Y-44.1802
G1 X18.8799 Y-44.1559
G1 X18.8900 Y-44.1391
G1 X18.8993 Y-44.1218
G1 X18.9077 Y-44.1040
G1 X18.9152 Y-44.0859
G1 X18.9218 Y-44.0674
G1 X18.9275 Y-44.0486
G1 X18.9323 Y-44.0296
G1 X18.9361 Y-44.0103
G1 X18.9390 Y-43.9909
G1 X18.9409 Y-43.9713
G1 X18.9420 Y-43.9419
G1 X18.9420 Y-42.4179
G1 X18.9415 Y-42.3983
G1 X18.9400 Y-42.3787
G1 X18.9376 Y-42.3592
G1 X18.9343 Y-42.3399
G1 X18.9300 Y-42.3207
G1 X18.9247 Y-42.3018
G1 X18.9152 Y-42.2740
G1 X18.9036 Y-42.2469
G1 X18.8900 Y-42.2208
G1 X18.8746 Y-42.1957
G1 X18.8573 Y-42.1718
G1 X18.8449 Y-42.1567
G1 X18.8317 Y-42.1421
G1 X18.8106 Y-42.1215
G1 X18.7881 Y-42.1026
G1 X18.7642 Y-42.0853
G1 X18.7391 Y-42.0699
G1 X18.7218 Y-42.0606
G1 X18.7041 Y-42.0522
G1 X18.6767 Y-42.0413
G1 X18.6581 Y-42.0351
G1 X18.6392 Y-42.0299
G1 X18.6104 Y-42.0238
G1 X18.5909 Y-42.0209
G1 X18.5802 Y-42.0198
G1 X18.5802 Y-31.5036
G1 X18.5970 Y-31.4910
G1 X18.6122 Y-31.4785
G1 X18.6922 Y-31.4060
G1 X18.7127 Y-31.3850
G1 X18.7721 Y-31.3195
G1 X18.7849 Y-31.3047
G1 X18.7970 Y-31.2892
G1 X18.8496 Y-31.2182
G1 X18.8609 Y-31.2022
G1 X18.8714 Y-31.1856
G1 X18.9168 Y-31.1098
G1 X18.9265 Y-31.0928
G1 X18.9353 Y-31.0752
G1 X18.9731 Y-30.9954
G1 X18.9810 Y-30.9774
G1 X18.9881 Y-30.9591
G1 X19.0178 Y-30.8760
G1 X19.0267 Y-30.8479
G1 X19.0530 Y-30.7432
G1 X19.0583 Y-30.7142
G1 X19.0713 Y-30.6268
G1 X19.0737 Y-30.6074
G1 X19.0752 Y-30.5878
G1 X19.0795 Y-30.4996
G1 X19.0800 Y-30.4799
G1 X19.0795 Y-30.4603
G1 X19.0752 Y-30.3721
G1 X19.0737 Y-30.3525
G1 X19.0713 Y-30.3330
G1 X19.0583 Y-30.2457
G1 X19.0550 Y-30.2263
G1 X19.0507 Y-30.2072
G1 X19.0292 Y-30.1215
G1 X19.0240 Y-30.1026
G1 X19.0178 Y-30.0839
G1 X18.9881 Y-30.0008
G1 X18.9810 Y-29.9825
G1 X18.9731 Y-29.9645
G1 X18.9353 Y-29.8847
G1 X18.9265 Y-29.8671
G1 X18.9168 Y-29.8500
G1 X18.8714 Y-29.7743
G1 X18.8609 Y-29.7577
G1 X18.8496 Y-29.7416
G1 X18.7970 Y-29.6707
G1 X18.7849 Y-29.6552
G1 X18.7721 Y-29.6404
G1 X18.7127 Y-29.5749
G1 X18.6992 Y-29.5607
G1 X18.6850 Y-29.5472
G1 X18.6195 Y-29.4879
G1 X18.6047 Y-29.4750
G1 X18.5892 Y-29.4629
G1 X18.5183 Y-29.4103
G1 X18.5022 Y-29.3990
G1 X18.4856 Y-29.3885
G1 X18.4099 Y-29.3431
G1 X18.3928 Y-29.3334
G1 X18.3752 Y-29.3246
G1 X18.2954 Y-29.2869
G1 X18.2775 Y-29.2789
G1 X18.2591 Y-29.2718
G1 X18.1760 Y-29.2421
G1 X18.1573 Y-29.2359
G1 X18.1384 Y-29.2307
G1 X18.0527 Y-29.2092
G1 X18.0336 Y-29.2049
G1 X18.0142 Y-29.2016
G1 X17.9269 Y-29.1886
G1 X17.9074 Y-29.1862
G1 X17.8878 Y-29.1848
G1 X17.7996 Y-29.1804
G1 X17.7800 Y-29.1799
G1 X17.7603 Y-29.1804
G1 X17.6721 Y-29.1848
G1 X17.6525 Y-29.1862
G1 X17.6331 Y-29.1886
G1 X17.5457 Y-29.2016
G1 X17.5264 Y-29.2049
G1 X17.5072 Y-29.2092
G1 X17.4215 Y-29.2307
G1 X17.4026 Y-29.2359
G1 X17.3840 Y-29.2421
G1 X17.3008 Y-29.2718
G1 X17.2825 Y-29.2789
G1 X17.2645 Y-29.2869
G1 X17.1847 Y-29.3246
G1 X17.1672 Y-29.3334
G1 X17.1501 Y-29.3431
G1 X17.0743 Y-29.3885
G1 X17.0577 Y-29.3990
G1 X17.0417 Y-29.4103
G1 X16.9707 Y-29.4629
G1 X16.9553 Y-29.4750
G1 X16.9404 Y-29.4879
G1 X16.8678 Y-29.5538
G1 X16.8472 Y-29.5749
G1 X16.7879 Y-29.6404
G1 X16.7751 Y-29.6552
G1 X16.7630 Y-29.6707
G1 X16.7104 Y-29.7416
G1 X16.6991 Y-29.7577
G1 X16.6886 Y-29.7743
G1 X16.6431 Y-29.8500
G1 X16.6335 Y-29.8671
G1 X16.6246 Y-29.8847
G1 X16.5869 Y-29.9645
G1 X16.5789 Y-29.9825
G1 X16.5719 Y-30.0008
G1 X16.5421 Y-30.0839
G1 X16.5359 Y-30.1026
G1 X16.5307 Y-30.1215
G1 X16.5093 Y-30.2072
G1 X16.5049 Y-30.2263
G1 X16.5016 Y-30.2457
G1 X16.4886 Y-30.3330
G1 X16.4862 Y-30.3525
G1 X16.4848 Y-30.3721
G1 X16.4805 Y-30.4603
G1 X16.4800 Y-30.4799
G1 X16.4805 Y-30.4996
G1 X16.4848 Y-30.5878
G1 X16.4862 Y-30.6074
G1 X16.4886 Y-30.6268
G1 X16.5016 Y-30.7142
G1 X16.5070 Y-30.7432
G1 X16.5332 Y-30.8479
G1 X16.5421 Y-30.8760
G1 X16.5719 Y-30.9591
G1 X16.5789 Y-30.9774
G1 X16.5869 Y-30.9954
G1 X16.6246 Y-31.0752
G1 X16.6335 Y-31.0928
G1 X16.6431 Y-31.1098
G1 X16.6886 Y-31.1856
G1 X16.6991 Y-31.2022
G1 X16.7104 Y-31.2182
G1 X16.7630 Y-31.2892
G1 X16.7751 Y-31.3047
G1 X16.7879 Y-31.3195
G1 X16.8472 Y-31.3850
G1 X16.8678 Y-31.4060
G1 X16.9477 Y-31.4785
G1 X16.9629 Y-31.4910
G1 X16.9798 Y-31.5037
G1 X16.9798 Y-42.0198
G1 X16.9690 Y-42.0209
G1 X16.9496 Y-42.0238
G1 X16.9303 Y-42.0276
G1 X16.9113 Y-42.0324
G1 X16.8925 Y-42.0381
G1 X16.8740 Y-42.0447
G1 X16.8559 Y-42.0522
G1 X16.8381 Y-42.0606
G1 X16.8208 Y-42.0699
G1 X16.8040 Y-42.0800
G1 X16.7797 Y-42.0966
G1 X16.7642 Y-42.1087
G1 X16.7493 Y-42.1215
G1 X16.7351 Y-42.1351
G1 X16.7216 Y-42.1493
G1 X16.7088 Y-42.1642
G1 X16.6967 Y-42.1796
G1 X16.6854 Y-42.1957
G1 X16.6749 Y-42.2123
G1 X16.6607 Y-42.2381
G1 X16.6523 Y-42.2558
G1 X16.6448 Y-42.2740
G1 X16.6352 Y-42.3018
G1 X16.6300 Y-42.3207
G1 X16.6257 Y-42.3399
G1 X16.6223 Y-42.3592
G1 X16.6199 Y-42.3787
G1 X16.6185 Y-42.3983
G1 X16.6180 Y-42.4179
G1 X16.6180 Y-43.9419
G1 X16.6185 Y-43.9615
G1 X16.6199 Y-43.9811
G1 X16.6223 Y-44.0006
G1 X16.6257 Y-44.0200
G1 X16.6325 Y-44.0486
G1 X16.6414 Y-44.0767
G1 X16.6523 Y-44.1040
G1 X16.6607 Y-44.1218
G1 X16.6699 Y-44.1391
G1 X16.6854 Y-44.1641
G1 X16.7026 Y-44.1880
G1 X16.7151 Y-44.2032
G1 X16.7283 Y-44.2177
G1 X16.7493 Y-44.2383
G1 X16.7719 Y-44.2573
G1 X16.7957 Y-44.2745
G1 X16.8123 Y-44.2850
G1 X16.8294 Y-44.2947
G1 X16.8559 Y-44.3076
G1 X16.8832 Y-44.3185
G1 X16.9019 Y-44.3247
G1 X16.9208 Y-44.3299
G1 X16.9496 Y-44.3360
G1 X16.9690 Y-44.3389
G1 X16.9798 Y-44.3401
G1 X16.9797 Y-49.6001
G0 Z2.0000
G0 X20.3096 Y-57.5270
F800
G1 Z-0.0500 F800
F1000
G1 X20.2683 Y-57.5646
G1 X20.2544 Y-57.5785
G1 X20.1950 Y-57.6438
G1 X20.1760 Y-57.6664
G1 X20.1233 Y-57.7372
G1 X20.1120 Y-57.7533
G1 X20.1015 Y-57.7699
G1 X20.0612 Y-57.8372
G1 X20.0470 Y-57.8630
G1 X20.0091 Y-57.9428
G1 X20.0011 Y-57.9607
G1 X19.9941 Y-57.9791
G1 X19.9676 Y-58.0530
G1 X19.9615 Y-58.0716
G1 X19.9562 Y-58.0906
G1 X19.9371 Y-58.1667
G1 X19.9328 Y-58.1859
G1 X19.9295 Y-58.2052
G1 X19.9180 Y-58.2829
G1 X19.9147 Y-58.3121
G1 X19.9103 Y-58.4003
G1 X19.9098 Y-58.4200
G1 X19.9103 Y-58.4396
G1 X19.9141 Y-58.5180
G1 X19.9156 Y-58.5376
G1 X19.9180 Y-58.5571
G1 X19.9295 Y-58.6347
G1 X19.9328 Y-58.6541
G1 X19.9371 Y-58.6732
G1 X19.9562 Y-58.7494
G1 X19.9615 Y-58.7683
G1 X19.9676 Y-58.7870
G1 X19.9941 Y-58.8609
G1 X20.0011 Y-58.8792
G1 X20.0091 Y-58.8971
G1 X20.0426 Y-58.9681
G1 X20.0515 Y-58.9856
G1 X20.0612 Y-59.0027
G1 X20.1015 Y-59.0701
G1 X20.1120 Y-59.0867
G1 X20.1233 Y-59.1027
G1 X20.1701 Y-59.1658
G1 X20.1885 Y-59.1888
G1 X20.2477 Y-59.2543
G1 X20.2613 Y-59.2685
G1 X20.2755 Y-59.2820
G1 X20.3336 Y-59.3348
G1 X20.3485 Y-59.3476
G1 X20.3640 Y-59.3597
G1 X20.4270 Y-59.4064
G1 X20.4431 Y-59.4177
G1 X20.4597 Y-59.4282
G1 X20.5270 Y-59.4686
G1 X20.5441 Y-59.4783
G1 X20.5616 Y-59.4871
G1 X20.6326 Y-59.5207
G1 X20.6506 Y-59.5286
G1 X20.6689 Y-59.5357
G1 X20.7428 Y-59.5621
G1 X20.7614 Y-59.5683
G1 X20.7804 Y-59.5735
G1 X20.8565 Y-59.5926
G1 X20.8757 Y-59.5969
G1 X20.8950 Y-59.6003
G1 X20.9727 Y-59.6118
G1 X20.9922 Y-59.6142
G1 X21.0117 Y-59.6156
G1 X21.0902 Y-59.6195
G1 X21.1098 Y-59.6200
G1 X21.1294 Y-59.6195
G1 X21.2078 Y-59.6156
G1 X21.2274 Y-59.6142
G1 X21.2469 Y-59.6118
G1 X21.3245 Y-59.6003
G1 X21.3439 Y-59.5969
G1 X21.3630 Y-59.5926
G1 X21.4392 Y-59.5735
G1 X21.4581 Y-59.5683
G1 X21.4768 Y-59.5621
G1 X21.5507 Y-59.5357
G1 X21.5690 Y-59.5286
G1 X21.5869 Y-59.5207
G1 X21.6579 Y-59.4871
G1 X21.6755 Y-59.4783
G1 X21.6925 Y-59.4686
G1 X21.7599 Y-59.4282
G1 X21.7765 Y-59.4177
G1 X21.7925 Y-59.4064
G1 X21.8556 Y-59.3597
G1 X21.8786 Y-59.3413
G1 X21.9441 Y-59.2820
G1 X21.9652 Y-59.2615
G1 X22.0311 Y-59.1888
G1 X22.0495 Y-59.1658
G1 X22.1020 Y-59.0947
G1 X22.1180 Y-59.0701
G1 X22.1584 Y-59.0027
G1 X22.1681 Y-58.9856
G1 X22.1769 Y-58.9681
G1 X22.2105 Y-58.8971
G1 X22.2184 Y-58.8792
G1 X22.2255 Y-58.8609
G1 X22.2519 Y-58.7870
G1 X22.2581 Y-58.7683
G1 X22.2633 Y-58.7494
G1 X22.2824 Y-58.6732
G1 X22.2867 Y-58.6541
G1 X22.2901 Y-58.6347
G1 X22.3016 Y-58.5571
G1 X22.3040 Y-58.5376
G1 X22.3054 Y-58.5180
G1 X22.3093 Y-58.4396
G1 X22.3098 Y-58.4200
G1 X22.3093 Y-58.4003
G1 X22.3054 Y-58.3219
G1 X22.3040 Y-58.3023
G1 X22.3016 Y-58.2829
G1 X22.2901 Y-58.2052
G1 X22.2867 Y-58.1859
G1 X22.2824 Y-58.1667
G1 X22.2633 Y-58.0906
G1 X22.2581 Y-58.0716
G1 X22.2519 Y-58.0530
G1 X22.2255 Y-57.9791
G1 X22.2146 Y-57.9517
G1 X22.1769 Y-57.8718
G1 X22.1681 Y-57.8543
G1 X22.1584 Y-57.8372
G1 X22.1180 Y-57.7699
G1 X22.1020 Y-57.7452
G1 X22.0495 Y-57.6742
G1 X22.0311 Y-57.6512
G1 X21.9652 Y-57.5785
G1 X21.9513 Y-57.5646
G1 X21.9100 Y-57.5270
G1 X21.9100 Y-53.0720
G1 X21.9215 Y-53.0620
G1 X21.9870 Y-53.0027
G1 X22.0012 Y-52.9891
G1 X22.0147 Y-52.9749
G1 X22.0740 Y-52.9095
G1 X22.0869 Y-52.8946
G1 X22.0989 Y-52.8791
G1 X22.1515 Y-52.8082
G1 X22.1629 Y-52.7921
G1 X22.1734 Y-52.7755
G1 X22.2188 Y-52.6998
G1 X22.2284 Y-52.6827
G1 X22.2373 Y-52.6652
G1 X22.2750 Y-52.5853
G1 X22.2830 Y-52.5674
G1 X22.2900 Y-52.5491
G1 X22.3198 Y-52.4659
G1 X22.3260 Y-52.4473
G1 X22.3312 Y-52.4283
G1 X22.3527 Y-52.3427
G1 X22.3570 Y-52.3235
G1 X22.3603 Y-52.3042
G1 X22.3733 Y-52.2168
G1 X22.3757 Y-52.1973
G1 X22.3771 Y-52.1777
G1 X22.3815 Y-52.0895
G1 X22.3818 Y-52.0601
G1 X22.3765 Y-51.9522
G1 X22.3733 Y-51.9230
G1 X22.3603 Y-51.8356
G1 X22.3570 Y-51.8163
G1 X22.3527 Y-51.7971
G1 X22.3312 Y-51.7114
G1 X22.3230 Y-51.6832
G1 X22.2900 Y-51.5907
G1 X22.2830 Y-51.5724
G1 X22.2750 Y-51.5545
G1 X22.2373 Y-51.4746
G1 X22.2284 Y-51.4571
G1 X22.2188 Y-51.4400
G1 X22.1734 Y-51.3642
G1 X22.1629 Y-51.3476
G1 X22.1515 Y-51.3316
G1 X22.0989 Y-51.2607
G1 X22.0869 Y-51.2452
G1 X22.0740 Y-51.2303
G1 X22.0147 Y-51.1649
G1 X22.0012 Y-51.1507
G1 X21.9870 Y-51.1371
G1 X21.9215 Y-51.0778
G1 X21.9067 Y-51.0650
G1 X21.8912 Y-51.0529
G1 X21.8202 Y-51.0003
G1 X21.7960 Y-50.9836
G1 X21.7118 Y-50.9331
G1 X21.6948 Y-50.9234
G1 X21.6772 Y-50.9146
G1 X21.5974 Y-50.8768
G1 X21.5794 Y-50.8688
G1 X21.5611 Y-50.8618
G1 X21.4780 Y-50.8320
G1 X21.4593 Y-50.8259
G1 X21.4404 Y-50.8206
G1 X21.3547 Y-50.7992
G1 X21.3356 Y-50.7949
G1 X21.3162 Y-50.7915
G1 X21.2191 Y-50.7772
G1 X21.1898 Y-50.7747
G1 X21.1016 Y-50.7704
G1 X21.0819 Y-50.7699
G1 X21.0623 Y-50.7704
G1 X20.9741 Y-50.7747
G1 X20.9545 Y-50.7761
G1 X20.9350 Y-50.7786
G1 X20.8477 Y-50.7915
G1 X20.8283 Y-50.7949
G1 X20.8092 Y-50.7992
G1 X20.7235 Y-50.8206
G1 X20.7046 Y-50.8259
G1 X20.6859 Y-50.8320
G1 X20.6028 Y-50.8618
G1 X20.5845 Y-50.8688
G1 X20.5665 Y-50.8768
G1 X20.4867 Y-50.9146
G1 X20.4691 Y-50.9234
G1 X20.4520 Y-50.9331
G1 X20.3763 Y-50.9785
G1 X20.3597 Y-50.9890
G1 X20.3436 Y-51.0003
G1 X20.2727 Y-51.0529
G1 X20.2572 Y-51.0650
G1 X20.2424 Y-51.0778
G1 X20.1769 Y-51.1371
G1 X20.1627 Y-51.1507
G1 X20.1492 Y-51.1649
G1 X20.0899 Y-51.2303
G1 X20.0770 Y-51.2452
G1 X20.0649 Y-51.2607
G1 X20.0123 Y-51.3316
G1 X20.0010 Y-51.3476
G1 X19.9905 Y-51.3642
G1 X19.9451 Y-51.4400
G1 X19.9354 Y-51.4571
G1 X19.9266 Y-51.4746
G1 X19.8889 Y-51.5545
G1 X19.8809 Y-51.5724
G1 X19.8738 Y-51.5907
G1 X19.8441 Y-51.6739
G1 X19.8379 Y-51.6925
G1 X19.8327 Y-51.7114
G1 X19.8112 Y-51.7971
G1 X19.8069 Y-51.8163
G1 X19.8036 Y-51.8356
G1 X19.7893 Y-51.9327
G1 X19.7868 Y-51.9620
G1 X19.7824 Y-52.0503
G1 X19.7819 Y-52.0699
G1 X19.7824 Y-52.0895
G1 X19.7868 Y-52.1777
G1 X19.7882 Y-52.1973
G1 X19.7906 Y-52.2168
G1 X19.8036 Y-52.3042
G1 X19.8069 Y-52.3235
G1 X19.8112 Y-52.3427
G1 X19.8327 Y-52.4283
G1 X19.8379 Y-52.4473
G1 X19.8441 Y-52.4659
G1 X19.8738 Y-52.5491
G1 X19.8848 Y-52.5764
G1 X19.9309 Y-52.6740
G1 X19.9451 Y-52.6998
G1 X19.9905 Y-52.7755
G1 X20.0010 Y-52.7921
G1 X20.0123 Y-52.8082
G1 X20.0709 Y-52.8869
G1 X20.0899 Y-52.9095
G1 X20.1492 Y-52.9749
G1 X20.1697 Y-52.9960
G1 X20.2497 Y-53.0685
G1 X20.2649 Y-53.0809
G1 X20.3096 Y-53.1142
G1 X20.3096 Y-57.5270
G0 Z2.0000
G0 X23.8096 Y-57.5270
F800
G1 Z-0.0500 F800
F1000
G1 X23.7684 Y-57.5646
G1 X23.7545 Y-57.5785
G1 X23.6951 Y-57.6438
G1 X23.6762 Y-57.6664
G1 X23.6234 Y-57.7372
G1 X23.6121 Y-57.7533
G1 X23.6016 Y-57.7699
G1 X23.5613 Y-57.8372
G1 X23.5471 Y-57.8630
G1 X23.5092 Y-57.9428
G1 X23.5012 Y-57.9607
G1 X23.4942 Y-57.9791
G1 X23.4677 Y-58.0530
G1 X23.4616 Y-58.0716
G1 X23.4563 Y-58.0906
G1 X23.4373 Y-58.1667
G1 X23.4330 Y-58.1859
G1 X23.4296 Y-58.2052
G1 X23.4181 Y-58.2829
G1 X23.4148 Y-58.3121
G1 X23.4104 Y-58.4003
G1 X23.4099 Y-58.4200
G1 X23.4104 Y-58.4396
G1 X23.4142 Y-58.5180
G1 X23.4157 Y-58.5376
G1 X23.4181 Y-58.5571
G1 X23.4296 Y-58.6347
G1 X23.4330 Y-58.6541
G1 X23.4373 Y-58.6732
G1 X23.4563 Y-58.7494
G1 X23.4616 Y-58.7683
G1 X23.4677 Y-58.7870
G1 X23.4942 Y-58.8609
G1 X23.5012 Y-58.8792
G1 X23.5092 Y-58.8971
G1 X23.5428 Y-58.9681
G1 X23.5516 Y-58.9856
G1 X23.5613 Y-59.0027
G1 X23.6016 Y-59.0701
G1 X23.6121 Y-59.0867
G1 X23.6234 Y-59.1027
G1 X23.6702 Y-59.1658
G1 X23.6886 Y-59.1888
G1 X23.7478 Y-59.2543
G1 X23.7614 Y-59.2685
G1 X23.7756 Y-59.2820
G1 X23.8338 Y-59.3348
G1 X23.8486 Y-59.3476
G1 X23.8641 Y-59.3597
G1 X23.9272 Y-59.4064
G1 X23.9432 Y-59.4177
G1 X23.9598 Y-59.4282
G1 X24.0271 Y-59.4686
G1 X24.0442 Y-59.4783
G1 X24.0618 Y-59.4871
G1 X24.1327 Y-59.5207
G1 X24.1507 Y-59.5286
G1 X24.1690 Y-59.5357
G1 X24.2429 Y-59.5621
G1 X24.2616 Y-59.5683
G1 X24.2805 Y-59.5735
G1 X24.3566 Y-59.5926
G1 X24.3758 Y-59.5969
G1 X24.3951 Y-59.6003
G1 X24.4728 Y-59.6118
G1 X24.4923 Y-59.6142
G1 X24.5119 Y-59.6156
G1 X24.5903 Y-59.6195
G1 X24.6099 Y-59.6200
G1 X24.6295 Y-59.6195
G1 X24.7079 Y-59.6156
G1 X24.7275 Y-59.6142
G1 X24.7470 Y-59.6118
G1 X24.8247 Y-59.6003
G1 X24.8440 Y-59.5969
G1 X24.8632 Y-59.5926
G1 X24.9393 Y-59.5735
G1 X24.9582 Y-59.5683
G1 X24.9769 Y-59.5621
G1 X25.0508 Y-59.5357
G1 X25.0691 Y-59.5286
G1 X25.0871 Y-59.5207
G1 X25.1580 Y-59.4871
G1 X25.1756 Y-59.4783
G1 X25.1927 Y-59.4686
G1 X25.2600 Y-59.4282
G1 X25.2766 Y-59.4177
G1 X25.2926 Y-59.4064
G1 X25.3557 Y-59.3597
G1 X25.3787 Y-59.3413
G1 X25.4442 Y-59.2820
G1 X25.4584 Y-59.2685
G1 X25.4720 Y-59.2543
G1 X25.5247 Y-59.1961
G1 X25.5436 Y-59.1736
G1 X25.5964 Y-59.1027
G1 X25.6130 Y-59.0784
G1 X25.6635 Y-58.9942
G1 X25.6770 Y-58.9681
G1 X25.7106 Y-58.8971
G1 X25.7186 Y-58.8792
G1 X25.7256 Y-58.8609
G1 X25.7521 Y-58.7870
G1 X25.7610 Y-58.7589
G1 X25.7825 Y-58.6732
G1 X25.7886 Y-58.6444
G1 X25.8030 Y-58.5473
G1 X25.8056 Y-58.5180
G1 X25.8098 Y-58.4298
G1 X25.8094 Y-58.4003
G1 X25.8056 Y-58.3219
G1 X25.8041 Y-58.3023
G1 X25.8017 Y-58.2829
G1 X25.7902 Y-58.2052
G1 X25.7868 Y-58.1859
G1 X25.7825 Y-58.1667
G1 X25.7635 Y-58.0906
G1 X25.7582 Y-58.0716
G1 X25.7521 Y-58.0530
G1 X25.7256 Y-57.9791
G1 X25.7147 Y-57.9517
G1 X25.6770 Y-57.8718
G1 X25.6682 Y-57.8543
G1 X25.6585 Y-57.8372
G1 X25.6182 Y-57.7699
G1 X25.6021 Y-57.7452
G1 X25.5496 Y-57.6742
G1 X25.5312 Y-57.6512
G1 X25.4653 Y-57.5785
G1 X25.4514 Y-57.5646
G1 X25.4100 Y-57.5269
G1 X25.4101 Y-57.0016
G1 X30.2871 Y-52.1246
G1 X30.3388 Y-52.1322
G1 X30.3584 Y-52.1341
G1 X30.4701 Y-52.1396
G1 X30.4995 Y-52.1392
G1 X30.5917 Y-52.1347
G1 X30.6210 Y-52.1322
G1 X30.7317 Y-52.1157
G1 X30.7605 Y-52.1096
G1 X30.8499 Y-52.0872
G1 X30.8688 Y-52.0820
G1 X30.8875 Y-52.0758
G1 X30.9835 Y-52.0413
G1 X31.0106 Y-52.0297
G1 X31.0940 Y-51.9903
G1 X31.1115 Y-51.9815
G1 X31.1286 Y-51.9718
G1 X31.2077 Y-51.9244
G1 X31.2243 Y-51.9139
G1 X31.2403 Y-51.9026
G1 X31.3144 Y-51.8476
G1 X31.3299 Y-51.8356
G1 X31.3447 Y-51.8227
G1 X31.4131 Y-51.7608
G1 X31.4342 Y-51.7402
G1 X31.5093 Y-51.6574
G1 X31.5277 Y-51.6344
G1 X31.5826 Y-51.5603
G1 X31.5939 Y-51.5442
G1 X31.6044 Y-51.5277
G1 X31.6518 Y-51.4485
G1 X31.6615 Y-51.4315
G1 X31.6703 Y-51.4139
G1 X31.7098 Y-51.3306
G1 X31.7177 Y-51.3126
G1 X31.7248 Y-51.2943
G1 X31.7559 Y-51.2075
G1 X31.7620 Y-51.1888
G1 X31.7673 Y-51.1699
G1 X31.7919 Y-51.0709
G1 X31.7973 Y-51.0419
G1 X31.8109 Y-50.9507
G1 X31.8141 Y-50.9214
G1 X31.8196 Y-50.8097
G1 X31.8192 Y-50.7803
G1 X31.8147 Y-50.6881
G1 X31.8133 Y-50.6686
G1 X31.8109 Y-50.6491
G1 X31.7973 Y-50.5579
G1 X31.7940 Y-50.5385
G1 X31.7897 Y-50.5194
G1 X31.7673 Y-50.4299
G1 X31.7620 Y-50.4110
G1 X31.7559 Y-50.3923
G1 X31.7248 Y-50.3055
G1 X31.7177 Y-50.2872
G1 X31.7098 Y-50.2692
G1 X31.6703 Y-50.1858
G1 X31.6615 Y-50.1683
G1 X31.6518 Y-50.1512
G1 X31.6044 Y-50.0721
G1 X31.5939 Y-50.0555
G1 X31.5826 Y-50.0395
G1 X31.5277 Y-49.9654
G1 X31.5156 Y-49.9499
G1 X31.5028 Y-49.9351
G1 X31.4408 Y-49.8667
G1 X31.4273 Y-49.8525
G1 X31.4131 Y-49.8390
G1 X31.3447 Y-49.7770
G1 X31.3299 Y-49.7642
G1 X31.3144 Y-49.7521
G1 X31.2403 Y-49.6972
G1 X31.2243 Y-49.6859
G1 X31.2077 Y-49.6754
G1 X31.1286 Y-49.6280
G1 X31.1115 Y-49.6183
G1 X31.0940 Y-49.6095
G1 X31.0106 Y-49.5700
G1 X30.9926 Y-49.5621
G1 X30.9743 Y-49.5550
G1 X30.8875 Y-49.5239
G1 X30.8688 Y-49.5178
G1 X30.8499 Y-49.5125
G1 X30.7605 Y-49.4901
G1 X30.7413 Y-49.4858
G1 X30.7220 Y-49.4825
G1 X30.6307 Y-49.4689
G1 X30.6112 Y-49.4665
G1 X30.5917 Y-49.4651
G1 X30.4995 Y-49.4606
G1 X30.4799 Y-49.4601
G1 X30.4603 Y-49.4606
G1 X30.3682 Y-49.4651
G1 X30.3486 Y-49.4665
G1 X30.3291 Y-49.4689
G1 X30.2379 Y-49.4825
G1 X30.2185 Y-49.4858
G1 X30.1994 Y-49.4901
G1 X30.1099 Y-49.5125
G1 X30.0910 Y-49.5178
G1 X30.0724 Y-49.5239
G1 X29.9855 Y-49.5550
G1 X29.9672 Y-49.5621
G1 X29.9493 Y-49.5700
G1 X29.8659 Y-49.6095
G1 X29.8483 Y-49.6183
G1 X29.8313 Y-49.6280
G1 X29.7522 Y-49.6754
G1 X29.7356 Y-49.6859
G1 X29.7195 Y-49.6972
G1 X29.6454 Y-49.7521
G1 X29.6300 Y-49.7642
G1 X29.6151 Y-49.7770
G1 X29.5468 Y-49.8390
G1 X29.5325 Y-49.8525
G1 X29.5190 Y-49.8667
G1 X29.4571 Y-49.9351
G1 X29.4442 Y-49.9499
G1 X29.4322 Y-49.9654
G1 X29.3772 Y-50.0395
G1 X29.3659 Y-50.0555
G1 X29.3554 Y-50.0721
G1 X29.3080 Y-50.1512
G1 X29.2983 Y-50.1683
G1 X29.2895 Y-50.1858
G1 X29.2501 Y-50.2692
G1 X29.2385 Y-50.2963
G1 X29.2008 Y-50.4016
G1 X29.1926 Y-50.4299
G1 X29.1702 Y-50.5194
G1 X29.1659 Y-50.5385
G1 X29.1625 Y-50.5579
G1 X29.1490 Y-50.6491
G1 X29.1457 Y-50.6783
G1 X29.1406 Y-50.7803
G1 X29.1402 Y-50.8097
G1 X29.1457 Y-50.9214
G1 X29.1477 Y-50.9410
G1 X29.1553 Y-50.9931
G1 X24.0440 Y-56.1043
G1 X24.0305 Y-56.1185
G1 X23.9976 Y-56.1550
G1 X23.9792 Y-56.1780
G1 X23.9558 Y-56.2095
G1 X23.9445 Y-56.2256
G1 X23.9340 Y-56.2422
G1 X23.9138 Y-56.2758
G1 X23.8996 Y-56.3016
G1 X23.8785 Y-56.3460
G1 X23.8706 Y-56.3639
G1 X23.8635 Y-56.3822
G1 X23.8471 Y-56.4285
G1 X23.8389 Y-56.4568
G1 X23.8293 Y-56.4949
G1 X23.8250 Y-56.5140
G1 X23.8217 Y-56.5334
G1 X23.8146 Y-56.5819
G1 X23.8121 Y-56.6113
G1 X23.8101 Y-56.6505
G1 X23.8097 Y-56.6701
G1 X23.8096 Y-57.5270
G0 Z2.0000
M5 / выключение шпинделя
G0 Z2.0000
G0 Z15.00 X0 Y0


